; Generated with MatterSlice 1.0
; filamentDiameter = 1.75
; extrusionWidth = 0.4
; firstLayerExtrusionWidth = 0.4
; layerThickness = 0.4
; firstLayerThickness = 0.4
; automatic settings before start_gcode
G21 ; set units to millimeters
M107 ; fan off
M104 T0 S185 ; start heating extruder 1
; settings from start_gcode
G28 ; home all axes
M86 D0
M87 D1
M76 D0
M72 D0
; automatic settings after start_gcode
M109 T0 S185 ; wait for extruder 1 to reach temperature
G90 ; use absolute coordinates
G92 E0 ; reset the expected extruder position
M82 ; use absolute distance for extrusion
T0 K1
M201 X1 Y1
; Layer count: 125
; Layer Change GCode
; LAYER:0
M400
M201 X1000 Y1000
M87 B9 D1
M400
M107
G0 F4800 X0.2 Y49.8 Z2.2
; TYPE:WALL-OUTER
G0 Z0.2
G1 F1800 E0
M400
M87 B9 D0
G1 F120 X0.2 Y0.2 E3.29941
G1 X49.8 Y0.2 E6.59881
G1 X49.8 Y49.8 E9.89822
G1 X0.2 Y49.8 E13.19762
G0 F4800 X0.6 Y49.4
; TYPE:WALL-INNER
G1 F120 X0.6 Y0.6 E16.44381
G1 X49.4 Y0.6 E19.69
G1 X49.4 Y49.4 E22.93619
G1 X0.6 Y49.4 E26.18238
G0 F4800 X0.975 Y49.059
; TYPE:BOTTOM-FILL
G1 F120 X0.94 Y49.023 E26.18572
G0 F4800 X0.94 Y48.458
G1 F120 X1.541 Y49.059 E26.24226
G0 F4800 X2.107 Y49.059
G1 F120 X0.94 Y47.892 E26.35204
G0 F4800 X0.94 Y47.326
G1 F120 X2.672 Y49.059 E26.51502
G0 F4800 X3.238 Y49.059
G1 F120 X0.94 Y46.76 E26.73125
G0 F4800 X0.94 Y46.195
G1 F120 X3.804 Y49.059 E27.00068
G0 F4800 X4.369 Y49.059
G1 F120 X0.94 Y45.629 E27.32331
G0 F4800 X0.94 Y45.063
G1 F120 X4.935 Y49.059 E27.69918
G0 F4800 X5.501 Y49.059
G1 F120 X0.94 Y44.498 E28.12825
G0 F4800 X0.94 Y43.932
G1 F120 X6.066 Y49.059 E28.61052
G0 F4800 X6.632 Y49.059
G1 F120 X0.94 Y43.366 E29.14603
G0 F4800 X0.94 Y42.801
G1 F120 X7.198 Y49.059 E29.73475
G0 F4800 X7.764 Y49.059
G1 F120 X0.94 Y42.235 E30.37671
G0 F4800 X0.94 Y41.669
G1 F120 X8.329 Y49.059 E31.07187
G0 F4800 X8.895 Y49.059
G1 F120 X0.94 Y41.104 E31.82023
G0 F4800 X0.94 Y40.538
G1 F120 X9.461 Y49.059 E32.62183
G0 F4800 X10.026 Y49.059
G1 F120 X0.94 Y39.972 E33.47663
G0 F4800 X0.94 Y39.407
G1 F120 X10.592 Y49.059 E34.38463
G0 F4800 X11.158 Y49.059
G1 F120 X0.94 Y38.841 E35.34588
G0 F4800 X0.94 Y38.275
G1 F120 X11.723 Y49.059 E36.36032
G0 F4800 X12.289 Y49.059
G1 F120 X0.94 Y37.71 E37.42797
G0 F4800 X0.94 Y37.144
G1 F120 X12.855 Y49.059 E38.54886
G0 F4800 X13.42 Y49.059
G1 F120 X0.94 Y36.578 E39.72295
G0 F4800 X0.94 Y36.012
G1 F120 X13.986 Y49.059 E40.95028
G0 F4800 X14.552 Y49.059
G1 F120 X0.94 Y35.447 E42.23082
G0 F4800 X0.94 Y34.881
G1 F120 X15.117 Y49.059 E43.56455
G0 F4800 X15.683 Y49.059
G1 F120 X0.94 Y34.315 E44.95153
G0 F4800 X0.94 Y33.75
G1 F120 X16.249 Y49.059 E46.3917
G0 F4800 X16.814 Y49.059
G1 F120 X0.94 Y33.184 E47.88508
G0 F4800 X0.94 Y32.618
G1 F120 X17.38 Y49.059 E49.4317
G0 F4800 X17.946 Y49.059
G1 F120 X0.94 Y32.053 E51.03152
G0 F4800 X0.94 Y31.487
G1 F120 X18.512 Y49.059 E52.68459
G0 F4800 X19.077 Y49.059
G1 F120 X0.94 Y30.921 E54.39085
G0 F4800 X0.94 Y30.356
G1 F120 X19.643 Y49.059 E56.15031
G0 F4800 X20.209 Y49.059
G1 F120 X0.94 Y29.79 E57.96302
G0 F4800 X0.94 Y29.224
G1 F120 X20.774 Y49.059 E59.82893
G0 F4800 X21.34 Y49.059
G1 F120 X0.94 Y28.659 E61.74804
G0 F4800 X0.94 Y28.093
G1 F120 X21.906 Y49.059 E63.72039
G0 F4800 X22.471 Y49.059
G1 F120 X0.94 Y27.527 E65.74594
G0 F4800 X0.94 Y26.961
G1 F120 X23.037 Y49.059 E67.82474
G0 F4800 X23.603 Y49.059
G1 F120 X0.94 Y26.396 E69.95674
G0 F4800 X0.94 Y25.83
G1 F120 X24.168 Y49.059 E72.14193
G0 F4800 X24.734 Y49.059
G1 F120 X0.94 Y25.264 E74.38037
G0 F4800 X0.939 Y24.698
G1 F120 X25.3 Y49.059 E76.67211
G0 F4800 X25.866 Y49.059
G1 F120 X0.939 Y24.132 E79.01709
G0 F4800 X0.939 Y23.567
G1 F120 X26.432 Y49.059 E81.41526
G0 F4800 X26.998 Y49.059
G1 F120 X0.939 Y23.001 E83.86669
G0 F4800 X0.939 Y22.435
G1 F120 X27.563 Y49.059 E86.37131
G0 F4800 X28.129 Y49.059
G1 F120 X0.939 Y21.87 E88.92913
G0 F4800 X0.939 Y21.304
G1 F120 X28.695 Y49.059 E91.5402
G0 F4800 X29.26 Y49.059
G1 F120 X0.939 Y20.738 E94.20446
G0 F4800 X0.939 Y20.173
G1 F120 X29.826 Y49.059 E96.92193
G0 F4800 X30.392 Y49.059
G1 F120 X0.939 Y19.607 E99.69264
G0 F4800 X0.939 Y19.041
G1 F120 X30.957 Y49.059 E102.51655
G0 F4800 X31.523 Y49.059
G1 F120 X0.939 Y18.475 E105.3937
G0 F4800 X0.939 Y17.91
G1 F120 X32.089 Y49.059 E108.32406
G0 F4800 X32.654 Y49.059
G1 F120 X0.939 Y17.344 E111.30761
G0 F4800 X0.939 Y16.778
G1 F120 X33.22 Y49.059 E114.34441
G0 F4800 X33.786 Y49.059
G1 F120 X0.939 Y16.213 E117.43441
G0 F4800 X0.939 Y15.647
G1 F120 X34.351 Y49.059 E120.5776
G0 F4800 X34.917 Y49.059
G1 F120 X0.939 Y15.081 E123.77405
G0 F4800 X0.939 Y14.516
G1 F120 X35.483 Y49.059 E127.02369
G0 F4800 X36.049 Y49.059
G1 F120 X0.939 Y13.95 E130.32657
G0 F4800 X0.939 Y13.384
G1 F120 X36.614 Y49.059 E133.68266
G0 F4800 X37.18 Y49.059
G1 F120 X0.939 Y12.819 E137.09194
G0 F4800 X0.939 Y12.253
G1 F120 X37.746 Y49.059 E140.55447
G0 F4800 X38.311 Y49.059
G1 F120 X0.939 Y11.687 E144.0702
G0 F4800 X0.939 Y11.122
G1 F120 X38.877 Y49.059 E147.63913
G0 F4800 X39.443 Y49.059
G1 F120 X0.939 Y10.556 E151.2613
G0 F4800 X0.939 Y9.99
G1 F120 X40.008 Y49.059 E154.93667
G0 F4800 X40.574 Y49.059
G1 F120 X0.939 Y9.425 E158.66524
G0 F4800 X0.939 Y8.859
G1 F120 X41.14 Y49.059 E162.44706
G0 F4800 X41.705 Y49.059
G1 F120 X0.939 Y8.293 E166.28207
G0 F4800 X0.939 Y7.727
G1 F120 X42.271 Y49.059 E170.17034
G0 F4800 X42.837 Y49.059
G1 F120 X0.939 Y7.162 E174.1118
G0 F4800 X0.939 Y6.596
G1 F120 X43.402 Y49.059 E178.10645
G0 F4800 X43.968 Y49.059
G1 F120 X0.939 Y6.03 E182.15436
G0 F4800 X0.939 Y5.465
G1 F120 X44.534 Y49.059 E186.25546
G0 F4800 X45.099 Y49.059
G1 F120 X0.939 Y4.899 E190.40976
G0 F4800 X0.939 Y4.333
G1 F120 X45.665 Y49.059 E194.61731
G0 F4800 X46.231 Y49.059
G1 F120 X0.939 Y3.768 E198.87806
G0 F4800 X0.939 Y3.202
G1 F120 X46.797 Y49.059 E203.19205
G0 F4800 X47.362 Y49.059
G1 F120 X0.939 Y2.636 E207.55924
G0 F4800 X0.939 Y2.071
G1 F120 X47.928 Y49.059 E211.97963
G0 F4800 X48.494 Y49.059
G1 F120 X0.939 Y1.505 E216.45327
G0 F4800 X0.939 Y0.939
G1 F120 X49.059 Y49.059 E220.9801
G0 F4800 X49.059 Y48.494
G1 F120 X1.505 Y0.939 E225.45374
G0 F4800 X2.071 Y0.939
G1 F120 X49.059 Y47.928 E229.87413
G0 F4800 X49.059 Y47.362
G1 F120 X2.636 Y0.939 E234.24132
G0 F4800 X3.202 Y0.939
G1 F120 X49.059 Y46.797 E238.55531
G0 F4800 X49.059 Y46.231
G1 F120 X3.768 Y0.939 E242.81606
G0 F4800 X4.333 Y0.939
G1 F120 X49.059 Y45.665 E247.02361
G0 F4800 X49.059 Y45.099
G1 F120 X4.899 Y0.939 E251.17791
G0 F4800 X5.465 Y0.939
G1 F120 X49.059 Y44.534 E255.27901
G0 F4800 X49.059 Y43.968
G1 F120 X6.03 Y0.939 E259.32692
G0 F4800 X6.596 Y0.939
G1 F120 X49.059 Y43.402 E263.32157
G0 F4800 X49.059 Y42.837
G1 F120 X7.162 Y0.939 E267.26303
G0 F4800 X7.727 Y0.939
G1 F120 X49.059 Y42.271 E271.1513
G0 F4800 X49.059 Y41.705
G1 F120 X8.293 Y0.939 E274.98631
G0 F4800 X8.859 Y0.939
G1 F120 X49.059 Y41.14 E278.76813
G0 F4800 X49.059 Y40.574
G1 F120 X9.425 Y0.939 E282.4967
G0 F4800 X9.99 Y0.939
G1 F120 X49.059 Y40.008 E286.17207
G0 F4800 X49.059 Y39.443
G1 F120 X10.556 Y0.939 E289.79424
G0 F4800 X11.122 Y0.939
G1 F120 X49.059 Y38.877 E293.36317
G0 F4800 X49.059 Y38.311
G1 F120 X11.687 Y0.939 E296.8789
G0 F4800 X12.253 Y0.939
G1 F120 X49.059 Y37.746 E300.34143
G0 F4800 X49.059 Y37.18
G1 F120 X12.819 Y0.939 E303.75071
G0 F4800 X13.384 Y0.939
G1 F120 X49.059 Y36.614 E307.1068
G0 F4800 X49.059 Y36.049
G1 F120 X13.95 Y0.939 E310.40969
G0 F4800 X14.516 Y0.939
G1 F120 X49.059 Y35.483 E313.65933
G0 F4800 X49.059 Y34.917
G1 F120 X15.081 Y0.939 E316.85577
G0 F4800 X15.647 Y0.939
G1 F120 X49.059 Y34.351 E319.99896
G0 F4800 X49.059 Y33.786
G1 F120 X16.213 Y0.939 E323.08896
G0 F4800 X16.778 Y0.939
G1 F120 X49.059 Y33.22 E326.12576
G0 F4800 X49.059 Y32.654
G1 F120 X17.344 Y0.939 E329.10931
G0 F4800 X17.91 Y0.939
G1 F120 X49.059 Y32.089 E332.03967
G0 F4800 X49.059 Y31.523
G1 F120 X18.475 Y0.939 E334.91682
G0 F4800 X19.041 Y0.939
G1 F120 X49.059 Y30.957 E337.74073
G0 F4800 X49.059 Y30.392
G1 F120 X19.607 Y0.939 E340.51144
G0 F4800 X20.173 Y0.939
G1 F120 X49.059 Y29.826 E343.22891
G0 F4800 X49.059 Y29.26
G1 F120 X20.738 Y0.939 E345.89317
G0 F4800 X21.304 Y0.939
G1 F120 X49.059 Y28.695 E348.50424
G0 F4800 X49.059 Y28.129
G1 F120 X21.87 Y0.939 E351.06206
G0 F4800 X22.435 Y0.939
G1 F120 X49.059 Y27.563 E353.56668
G0 F4800 X49.059 Y26.998
G1 F120 X23.001 Y0.939 E356.01811
G0 F4800 X23.567 Y0.939
G1 F120 X49.059 Y26.432 E358.41629
G0 F4800 X49.059 Y25.866
G1 F120 X24.132 Y0.939 E360.76126
G0 F4800 X24.698 Y0.939
G1 F120 X49.059 Y25.3 E363.053
G0 F4800 X49.059 Y24.734
G1 F120 X25.264 Y0.94 E365.29144
G0 F4800 X25.83 Y0.94
G1 F120 X49.059 Y24.168 E367.47663
G0 F4800 X49.059 Y23.603
G1 F120 X26.396 Y0.94 E369.60863
G0 F4800 X26.961 Y0.94
G1 F120 X49.059 Y23.037 E371.68743
G0 F4800 X49.059 Y22.471
G1 F120 X27.527 Y0.94 E373.71298
G0 F4800 X28.093 Y0.94
G1 F120 X49.059 Y21.906 E375.68533
G0 F4800 X49.059 Y21.34
G1 F120 X28.659 Y0.94 E377.60444
G0 F4800 X29.224 Y0.94
G1 F120 X49.059 Y20.774 E379.47035
G0 F4800 X49.059 Y20.209
G1 F120 X29.79 Y0.94 E381.28306
G0 F4800 X30.356 Y0.94
G1 F120 X49.059 Y19.643 E383.04252
G0 F4800 X49.059 Y19.077
G1 F120 X30.921 Y0.94 E384.74878
G0 F4800 X31.487 Y0.94
G1 F120 X49.059 Y18.512 E386.40185
G0 F4800 X49.059 Y17.946
G1 F120 X32.053 Y0.94 E388.00167
G0 F4800 X32.618 Y0.94
G1 F120 X49.059 Y17.38 E389.54829
G0 F4800 X49.059 Y16.814
G1 F120 X33.184 Y0.94 E391.04167
G0 F4800 X33.75 Y0.94
G1 F120 X49.059 Y16.249 E392.48184
G0 F4800 X49.059 Y15.683
G1 F120 X34.315 Y0.94 E393.86882
G0 F4800 X34.881 Y0.94
G1 F120 X49.059 Y15.117 E395.20255
G0 F4800 X49.059 Y14.552
G1 F120 X35.447 Y0.94 E396.48309
G0 F4800 X36.012 Y0.94
G1 F120 X49.059 Y13.986 E397.71042
G0 F4800 X49.059 Y13.42
G1 F120 X36.578 Y0.94 E398.88451
G0 F4800 X37.144 Y0.94
G1 F120 X49.059 Y12.855 E400.0054
G0 F4800 X49.059 Y12.289
G1 F120 X37.71 Y0.94 E401.07305
G0 F4800 X38.275 Y0.94
G1 F120 X49.059 Y11.723 E402.08749
G0 F4800 X49.059 Y11.158
G1 F120 X38.841 Y0.94 E403.04874
G0 F4800 X39.407 Y0.94
G1 F120 X49.059 Y10.592 E403.95674
G0 F4800 X49.059 Y10.026
G1 F120 X39.972 Y0.94 E404.81154
G0 F4800 X40.538 Y0.94
G1 F120 X49.059 Y9.461 E405.61315
G0 F4800 X49.059 Y8.895
G1 F120 X41.104 Y0.94 E406.3615
G0 F4800 X41.669 Y0.94
G1 F120 X49.059 Y8.329 E407.05666
G0 F4800 X49.059 Y7.764
G1 F120 X42.235 Y0.94 E407.69862
G0 F4800 X42.801 Y0.94
G1 F120 X49.059 Y7.198 E408.28734
G0 F4800 X49.059 Y6.632
G1 F120 X43.366 Y0.94 E408.82285
G0 F4800 X43.932 Y0.94
G1 F120 X49.059 Y6.066 E409.30512
G0 F4800 X49.059 Y5.501
G1 F120 X44.498 Y0.94 E409.73419
G0 F4800 X45.063 Y0.94
G1 F120 X49.059 Y4.935 E410.11006
G0 F4800 X49.059 Y4.369
G1 F120 X45.629 Y0.94 E410.43269
G0 F4800 X46.195 Y0.94
G1 F120 X49.059 Y3.804 E410.70212
G0 F4800 X49.059 Y3.238
G1 F120 X46.76 Y0.94 E410.91835
G0 F4800 X47.326 Y0.94
G1 F120 X49.059 Y2.672 E411.08133
G0 F4800 X49.059 Y2.107
G1 F120 X47.892 Y0.94 E411.19111
G0 F4800 X48.458 Y0.94
G1 F120 X49.059 Y1.541 E411.24765
G0 F4800 X49.059 Y0.975
G1 F120 X49.023 Y0.94 E411.25099
; Layer Change GCode
; LAYER:1
M400
M201 X1000 Y1000
M87 B9 D1
M400
M106 S89
G1 F1800 E405.25099
G0 Z2.2
G0 F4800 X0.2 Y49.8 Z2.6
; TYPE:WALL-OUTER
G0 Z0.6
G1 F1800 E411.25099
M400
M87 B9 D0
G1 F120 X0.2 Y0.2 E414.5504
G1 X49.8 Y0.2 E417.8498
G1 X49.8 Y49.8 E421.14921
G1 X0.2 Y49.8 E424.44861
G0 F4800 X0.6 Y49.4
; TYPE:WALL-INNER
G1 F120 X0.6 Y0.6 E427.6948
G1 X49.4 Y0.6 E430.94099
G1 X49.4 Y49.4 E434.18718
G1 X0.6 Y49.4 E437.43337
G0 F4800 X0.975 Y49.059
; TYPE:FILL
G1 F120 X0.94 Y49.023 E437.43671
G0 F4800 X1.852 Y49.059
G1 F120 X49.059 Y1.852 E441.87766
G0 F4800 X49.059 Y0.975
G1 F120 X49.023 Y0.94 E441.881
G1 F1800 E435.881
G0 Z2.6
G0 F4800 X47.142 Y0.94
G0 Z0.6
G1 F1800 E441.881
G1 F120 X0.94 Y47.142 E446.2274
G0 F4800 X0.94 Y46.195
G1 F120 X3.804 Y49.059 E446.49682
G0 F4800 X4.681 Y49.059
G1 F120 X49.059 Y4.681 E450.67163
G0 F4800 X49.059 Y3.804
G1 F120 X46.195 Y0.94 E450.94106
G1 F1800 E444.94106
G0 Z2.6
G0 F4800 X44.314 Y0.94
G0 Z0.6
G1 F1800 E450.94106
G1 F120 X0.94 Y44.314 E455.02142
G0 F4800 X0.94 Y43.366
G1 F120 X6.632 Y49.059 E455.55694
G0 F4800 X7.509 Y49.059
G1 F120 X49.059 Y7.509 E459.46571
G0 F4800 X49.059 Y6.632
G1 F120 X43.366 Y0.94 E460.00122
G1 F1800 E454.00122
G0 Z2.6
G0 F4800 X41.485 Y0.94
G0 Z0.6
G1 F1800 E460.00122
G1 F120 X0.94 Y41.485 E463.81545
G0 F4800 X0.94 Y40.538
G1 F120 X9.461 Y49.059 E464.61705
G0 F4800 X10.337 Y49.059
G1 F120 X49.059 Y10.337 E468.25978
G0 F4800 X49.059 Y9.461
G1 F120 X40.538 Y0.94 E469.06138
G1 F1800 E463.06138
G0 Z2.6
G0 F4800 X38.657 Y0.94
G0 Z0.6
G1 F1800 E469.06138
G1 F120 X0.94 Y38.657 E472.60957
G0 F4800 X0.94 Y37.71
G1 F120 X12.289 Y49.059 E473.67721
G0 F4800 X13.166 Y49.059
G1 F120 X49.059 Y13.166 E477.0538
G0 F4800 X49.059 Y12.289
G1 F120 X37.71 Y0.94 E478.12145
G1 F1800 E472.12145
G0 Z2.6
G0 F4800 X35.829 Y0.94
G0 Z0.6
G1 F1800 E478.12145
G1 F120 X0.94 Y35.829 E481.40359
G0 F4800 X0.94 Y34.881
G1 F120 X15.117 Y49.059 E482.73732
G0 F4800 X15.994 Y49.059
G1 F120 X49.059 Y15.994 E485.84788
G0 F4800 X49.059 Y15.117
G1 F120 X34.881 Y0.94 E487.18161
G1 F1800 E481.18161
G0 Z2.6
G0 F4800 X33 Y0.94
G0 Z0.6
G1 F1800 E487.18161
G1 F120 X0.94 Y33 E490.19762
G0 F4800 X0.94 Y32.053
G1 F120 X17.946 Y49.059 E491.79744
G0 F4800 X18.823 Y49.059
G1 F120 X49.059 Y18.823 E494.64185
G0 F4800 X49.059 Y17.946
G1 F120 X32.053 Y0.94 E496.24167
G1 F1800 E490.24167
G0 Z2.6
G0 F4800 X30.172 Y0.94
G0 Z0.6
G1 F1800 E496.24167
G1 F120 X0.94 Y30.172 E498.99164
G0 F4800 X0.94 Y29.224
G1 F120 X20.774 Y49.059 E500.85755
G0 F4800 X21.651 Y49.059
G1 F120 X49.059 Y21.651 E503.43593
G0 F4800 X49.059 Y20.774
G1 F120 X29.224 Y0.94 E505.30183
G1 F1800 E499.30183
G0 Z2.6
G0 F4800 X27.343 Y0.94
G0 Z0.6
G1 F1800 E505.30183
G1 F120 X0.94 Y27.343 E507.78567
G0 F4800 X0.94 Y26.396
G1 F120 X23.603 Y49.059 E509.91766
G0 F4800 X24.48 Y49.059
G1 F120 X49.059 Y24.48 E512.2299
G0 F4800 X49.059 Y23.603
G1 F120 X26.396 Y0.94 E514.3619
G1 F1800 E508.3619
G0 Z2.6
G0 F4800 X24.516 Y0.939
G0 Z0.6
G1 F1800 E514.3619
G1 F120 X0.939 Y24.516 E516.57988
G0 F4800 X0.939 Y23.567
G1 F120 X26.432 Y49.059 E518.97806
G0 F4800 X27.307 Y49.059
G1 F120 X49.059 Y27.307 E521.02435
G0 F4800 X49.059 Y26.432
G1 F120 X23.567 Y0.939 E523.42253
G1 F1800 E517.42253
G0 Z2.6
G0 F4800 X21.687 Y0.939
G0 Z0.6
G1 F1800 E523.42253
G1 F120 X0.939 Y21.687 E525.37438
G0 F4800 X0.939 Y20.738
G1 F120 X29.26 Y49.059 E528.03864
G0 F4800 X30.136 Y49.059
G1 F120 X49.059 Y30.136 E529.8188
G0 F4800 X49.059 Y29.26
G1 F120 X20.738 Y0.939 E532.48307
G1 F1800 E526.48307
G0 Z2.6
G0 F4800 X18.859 Y0.939
G0 Z0.6
G1 F1800 E532.48307
G1 F120 X0.939 Y18.859 E534.16887
G0 F4800 X0.939 Y17.91
G1 F120 X32.089 Y49.059 E537.09923
G0 F4800 X32.964 Y49.059
G1 F120 X49.059 Y32.964 E538.61334
G0 F4800 X49.059 Y32.089
G1 F120 X17.91 Y0.939 E541.5437
G1 F1800 E535.5437
G0 Z2.6
G0 F4800 X16.03 Y0.939
G0 Z0.6
G1 F1800 E541.5437
G1 F120 X0.939 Y16.03 E542.96337
G0 F4800 X0.939 Y15.081
G1 F120 X34.917 Y49.059 E546.15981
G0 F4800 X35.793 Y49.059
G1 F120 X49.059 Y35.793 E547.40779
G0 F4800 X49.059 Y34.917
G1 F120 X15.081 Y0.939 E550.60423
G1 F1800 E544.60423
G0 Z2.6
G0 F4800 X13.202 Y0.939
G0 Z0.6
G1 F1800 E550.60423
G1 F120 X0.939 Y13.202 E551.75786
G0 F4800 X0.939 Y12.253
G1 F120 X37.746 Y49.059 E555.22039
G0 F4800 X38.621 Y49.059
G1 F120 X49.059 Y38.621 E556.20234
G0 F4800 X49.059 Y37.746
G1 F120 X12.253 Y0.939 E559.66487
G1 F1800 E553.66487
G0 Z2.6
G0 F4800 X10.373 Y0.939
G0 Z0.6
G1 F1800 E559.66487
G1 F120 X0.939 Y10.373 E560.55236
G0 F4800 X0.939 Y9.425
G1 F120 X40.574 Y49.059 E564.28093
G0 F4800 X41.449 Y49.059
G1 F120 X49.059 Y41.449 E564.99683
G0 F4800 X49.059 Y40.574
G1 F120 X9.425 Y0.939 E568.7254
G1 F1800 E562.7254
G0 Z2.6
G0 F4800 X7.545 Y0.939
G0 Z0.6
G1 F1800 E568.7254
G1 F120 X0.939 Y7.545 E569.34685
G0 F4800 X0.939 Y6.596
G1 F120 X43.402 Y49.059 E573.34151
G0 F4800 X44.278 Y49.059
G1 F120 X49.059 Y44.278 E573.79128
G0 F4800 X49.059 Y43.402
G1 F120 X6.596 Y0.939 E577.78594
G1 F1800 E571.78594
G0 Z2.6
G0 F4800 X4.717 Y0.939
G0 Z0.6
G1 F1800 E577.78594
G1 F120 X0.939 Y4.717 E578.14135
G0 F4800 X0.939 Y3.768
G1 F120 X46.231 Y49.059 E582.4021
G0 F4800 X47.106 Y49.059
G1 F120 X49.059 Y47.106 E582.58582
G0 F4800 X49.059 Y46.231
G1 F120 X3.768 Y0.939 E586.84657
G1 F1800 E580.84657
G0 Z2.6
G0 F4800 X1.888 Y0.939
G0 Z0.6
G1 F1800 E586.84657
G1 F120 X0.939 Y1.888 E586.93584
G0 F4800 X0.939 Y0.939
G1 F120 X49.059 Y49.059 E591.46268
; Layer Change GCode
; LAYER:2
M400
M201 X1000 Y1000
M87 B9 D1
G1 F1800 E585.46268
G0 Z2.6
G0 F4800 X0.2 Y49.8 Z3
; TYPE:WALL-OUTER
G0 Z1
G1 F1800 E591.46268
M400
M87 B9 D0
G1 F120 X0.2 Y0.2 E594.76208
G1 X49.8 Y0.2 E598.06149
G1 X49.8 Y49.8 E601.3609
G1 X0.2 Y49.8 E604.6603
G0 F4800 X0.6 Y49.4
; TYPE:WALL-INNER
G1 F120 X0.6 Y0.6 E607.90649
G1 X49.4 Y0.6 E611.15268
G1 X49.4 Y49.4 E614.39887
G1 X0.6 Y49.4 E617.64506
G0 F4800 X0.975 Y49.059
; TYPE:FILL
G1 F120 X0.94 Y49.023 E617.6484
G0 F4800 X1.852 Y49.059
G1 F120 X49.059 Y1.852 E622.08934
G0 F4800 X49.059 Y0.975
G1 F120 X49.023 Y0.94 E622.09268
G1 F1800 E616.09268
G0 Z3
G0 F4800 X47.142 Y0.94
G0 Z1
G1 F1800 E622.09268
G1 F120 X0.94 Y47.142 E626.43908
G0 F4800 X0.94 Y46.195
G1 F120 X3.804 Y49.059 E626.70851
G0 F4800 X4.681 Y49.059
G1 F120 X49.059 Y4.681 E630.88332
G0 F4800 X49.059 Y3.804
G1 F120 X46.195 Y0.94 E631.15275
G1 F1800 E625.15275
G0 Z3
G0 F4800 X44.314 Y0.94
G0 Z1
G1 F1800 E631.15275
G1 F120 X0.94 Y44.314 E635.23311
G0 F4800 X0.94 Y43.366
G1 F120 X6.632 Y49.059 E635.76862
G0 F4800 X7.509 Y49.059
G1 F120 X49.059 Y7.509 E639.67739
G0 F4800 X49.059 Y6.632
G1 F120 X43.366 Y0.94 E640.21291
G1 F1800 E634.21291
G0 Z3
G0 F4800 X41.485 Y0.94
G0 Z1
G1 F1800 E640.21291
G1 F120 X0.94 Y41.485 E644.02713
G0 F4800 X0.94 Y40.538
G1 F120 X9.461 Y49.059 E644.82874
G0 F4800 X10.337 Y49.059
G1 F120 X49.059 Y10.337 E648.47147
G0 F4800 X49.059 Y9.461
G1 F120 X40.538 Y0.94 E649.27307
G1 F1800 E643.27307
G0 Z3
G0 F4800 X38.657 Y0.94
G0 Z1
G1 F1800 E649.27307
G1 F120 X0.94 Y38.657 E652.82125
G0 F4800 X0.94 Y37.71
G1 F120 X12.289 Y49.059 E653.8889
G0 F4800 X13.166 Y49.059
G1 F120 X49.059 Y13.166 E657.26549
G0 F4800 X49.059 Y12.289
G1 F120 X37.71 Y0.94 E658.33314
G1 F1800 E652.33314
G0 Z3
G0 F4800 X35.829 Y0.94
G0 Z1
G1 F1800 E658.33314
G1 F120 X0.94 Y35.829 E661.61528
G0 F4800 X0.94 Y34.881
G1 F120 X15.117 Y49.059 E662.94901
G0 F4800 X15.994 Y49.059
G1 F120 X49.059 Y15.994 E666.05956
G0 F4800 X49.059 Y15.117
G1 F120 X34.881 Y0.94 E667.3933
G1 F1800 E661.3933
G0 Z3
G0 F4800 X33 Y0.94
G0 Z1
G1 F1800 E667.3933
G1 F120 X0.94 Y33 E670.4093
G0 F4800 X0.94 Y32.053
G1 F120 X17.946 Y49.059 E672.00912
G0 F4800 X18.823 Y49.059
G1 F120 X49.059 Y18.823 E674.85354
G0 F4800 X49.059 Y17.946
G1 F120 X32.053 Y0.94 E676.45336
G1 F1800 E670.45336
G0 Z3
G0 F4800 X30.172 Y0.94
G0 Z1
G1 F1800 E676.45336
G1 F120 X0.94 Y30.172 E679.20333
G0 F4800 X0.94 Y29.224
G1 F120 X20.774 Y49.059 E681.06924
G0 F4800 X21.651 Y49.059
G1 F120 X49.059 Y21.651 E683.64761
G0 F4800 X49.059 Y20.774
G1 F120 X29.224 Y0.94 E685.51352
G1 F1800 E679.51352
G0 Z3
G0 F4800 X27.343 Y0.94
G0 Z1
G1 F1800 E685.51352
G1 F120 X0.94 Y27.343 E687.99735
G0 F4800 X0.94 Y26.396
G1 F120 X23.603 Y49.059 E690.12935
G0 F4800 X24.48 Y49.059
G1 F120 X49.059 Y24.48 E692.44159
G0 F4800 X49.059 Y23.603
G1 F120 X26.396 Y0.94 E694.57359
G1 F1800 E688.57359
G0 Z3
G0 F4800 X24.516 Y0.939
G0 Z1
G1 F1800 E694.57359
G1 F120 X0.939 Y24.516 E696.79157
G0 F4800 X0.939 Y23.567
G1 F120 X26.432 Y49.059 E699.18975
G0 F4800 X27.307 Y49.059
G1 F120 X49.059 Y27.307 E701.23604
G0 F4800 X49.059 Y26.432
G1 F120 X23.567 Y0.939 E703.63422
G1 F1800 E697.63422
G0 Z3
G0 F4800 X21.687 Y0.939
G0 Z1
G1 F1800 E703.63422
G1 F120 X0.939 Y21.687 E705.58606
G0 F4800 X0.939 Y20.738
G1 F120 X29.26 Y49.059 E708.25033
G0 F4800 X30.136 Y49.059
G1 F120 X49.059 Y30.136 E710.03049
G0 F4800 X49.059 Y29.26
G1 F120 X20.738 Y0.939 E712.69475
G1 F1800 E706.69475
G0 Z3
G0 F4800 X18.859 Y0.939
G0 Z1
G1 F1800 E712.69475
G1 F120 X0.939 Y18.859 E714.38056
G0 F4800 X0.939 Y17.91
G1 F120 X32.089 Y49.059 E717.31091
G0 F4800 X32.964 Y49.059
G1 F120 X49.059 Y32.964 E718.82503
G0 F4800 X49.059 Y32.089
G1 F120 X17.91 Y0.939 E721.75539
G1 F1800 E715.75539
G0 Z3
G0 F4800 X16.03 Y0.939
G0 Z1
G1 F1800 E721.75539
G1 F120 X0.939 Y16.03 E723.17505
G0 F4800 X0.939 Y15.081
G1 F120 X34.917 Y49.059 E726.3715
G0 F4800 X35.793 Y49.059
G1 F120 X49.059 Y35.793 E727.61948
G0 F4800 X49.059 Y34.917
G1 F120 X15.081 Y0.939 E730.81592
G1 F1800 E724.81592
G0 Z3
G0 F4800 X13.202 Y0.939
G0 Z1
G1 F1800 E730.81592
G1 F120 X0.939 Y13.202 E731.96955
G0 F4800 X0.939 Y12.253
G1 F120 X37.746 Y49.059 E735.43208
G0 F4800 X38.621 Y49.059
G1 F120 X49.059 Y38.621 E736.41402
G0 F4800 X49.059 Y37.746
G1 F120 X12.253 Y0.939 E739.87655
G1 F1800 E733.87655
G0 Z3
G0 F4800 X10.373 Y0.939
G0 Z1
G1 F1800 E739.87655
G1 F120 X0.939 Y10.373 E740.76405
G0 F4800 X0.939 Y9.425
G1 F120 X40.574 Y49.059 E744.49262
G0 F4800 X41.449 Y49.059
G1 F120 X49.059 Y41.449 E745.20852
G0 F4800 X49.059 Y40.574
G1 F120 X9.425 Y0.939 E748.93709
G1 F1800 E742.93709
G0 Z3
G0 F4800 X7.545 Y0.939
G0 Z1
G1 F1800 E748.93709
G1 F120 X0.939 Y7.545 E749.55854
G0 F4800 X0.939 Y6.596
G1 F120 X43.402 Y49.059 E753.5532
G0 F4800 X44.278 Y49.059
G1 F120 X49.059 Y44.278 E754.00297
G0 F4800 X49.059 Y43.402
G1 F120 X6.596 Y0.939 E757.99763
G1 F1800 E751.99763
G0 Z3
G0 F4800 X4.717 Y0.939
G0 Z1
G1 F1800 E757.99763
G1 F120 X0.939 Y4.717 E758.35304
G0 F4800 X0.939 Y3.768
G1 F120 X46.231 Y49.059 E762.61378
G0 F4800 X47.106 Y49.059
G1 F120 X49.059 Y47.106 E762.79751
G0 F4800 X49.059 Y46.231
G1 F120 X3.768 Y0.939 E767.05826
G1 F1800 E761.05826
G0 Z3
G0 F4800 X1.888 Y0.939
G0 Z1
G1 F1800 E767.05826
G1 F120 X0.939 Y1.888 E767.14753
G0 F4800 X0.939 Y0.939
G1 F120 X49.059 Y49.059 E771.67437
; Layer Change GCode
; LAYER:3
M400
M201 X1000 Y1000
M87 B9 D1
G1 F1800 E765.67437
G0 Z3
G0 F4800 X0.2 Y49.8 Z3.4
; TYPE:WALL-OUTER
G0 Z1.4
G1 F1800 E771.67437
M400
M87 B9 D0
G1 F120 X0.2 Y0.2 E774.97377
G1 X49.8 Y0.2 E778.27318
G1 X49.8 Y49.8 E781.57258
G1 X0.2 Y49.8 E784.87199
G0 F4800 X0.6 Y49.4
; TYPE:WALL-INNER
G1 F120 X0.6 Y0.6 E788.11818
G1 X49.4 Y0.6 E791.36437
G1 X49.4 Y49.4 E794.61056
G1 X0.6 Y49.4 E797.85674
G0 F4800 X0.975 Y49.059
; TYPE:FILL
G1 F120 X0.94 Y49.023 E797.86008
G0 F4800 X1.852 Y49.059
G1 F120 X49.059 Y1.852 E802.30103
G0 F4800 X49.059 Y0.975
G1 F120 X49.023 Y0.94 E802.30437
G1 F1800 E796.30437
G0 Z3.4
G0 F4800 X47.142 Y0.94
G0 Z1.4
G1 F1800 E802.30437
G1 F120 X0.94 Y47.142 E806.65077
G0 F4800 X0.94 Y46.195
G1 F120 X3.804 Y49.059 E806.9202
G0 F4800 X4.681 Y49.059
G1 F120 X49.059 Y4.681 E811.09501
G0 F4800 X49.059 Y3.804
G1 F120 X46.195 Y0.94 E811.36444
G1 F1800 E805.36444
G0 Z3.4
G0 F4800 X44.314 Y0.94
G0 Z1.4
G1 F1800 E811.36444
G1 F120 X0.94 Y44.314 E815.4448
G0 F4800 X0.94 Y43.366
G1 F120 X6.632 Y49.059 E815.98031
G0 F4800 X7.509 Y49.059
G1 F120 X49.059 Y7.509 E819.88908
G0 F4800 X49.059 Y6.632
G1 F120 X43.366 Y0.94 E820.4246
G1 F1800 E814.4246
G0 Z3.4
G0 F4800 X41.485 Y0.94
G0 Z1.4
G1 F1800 E820.4246
G1 F120 X0.94 Y41.485 E824.23882
G0 F4800 X0.94 Y40.538
G1 F120 X9.461 Y49.059 E825.04042
G0 F4800 X10.337 Y49.059
G1 F120 X49.059 Y10.337 E828.68315
G0 F4800 X49.059 Y9.461
G1 F120 X40.538 Y0.94 E829.48476
G1 F1800 E823.48476
G0 Z3.4
G0 F4800 X38.657 Y0.94
G0 Z1.4
G1 F1800 E829.48476
G1 F120 X0.94 Y38.657 E833.03294
G0 F4800 X0.94 Y37.71
G1 F120 X12.289 Y49.059 E834.10058
G0 F4800 X13.166 Y49.059
G1 F120 X49.059 Y13.166 E837.47718
G0 F4800 X49.059 Y12.289
G1 F120 X37.71 Y0.94 E838.54482
G1 F1800 E832.54482
G0 Z3.4
G0 F4800 X35.829 Y0.94
G0 Z1.4
G1 F1800 E838.54482
G1 F120 X0.94 Y35.829 E841.82697
G0 F4800 X0.94 Y34.881
G1 F120 X15.117 Y49.059 E843.1607
G0 F4800 X15.994 Y49.059
G1 F120 X49.059 Y15.994 E846.27125
G0 F4800 X49.059 Y15.117
G1 F120 X34.881 Y0.94 E847.60498
G1 F1800 E841.60498
G0 Z3.4
G0 F4800 X33 Y0.94
G0 Z1.4
G1 F1800 E847.60498
G1 F120 X0.94 Y33 E850.62099
G0 F4800 X0.94 Y32.053
G1 F120 X17.946 Y49.059 E852.22081
G0 F4800 X18.823 Y49.059
G1 F120 X49.059 Y18.823 E855.06523
G0 F4800 X49.059 Y17.946
G1 F120 X32.053 Y0.94 E856.66505
G1 F1800 E850.66505
G0 Z3.4
G0 F4800 X30.172 Y0.94
G0 Z1.4
G1 F1800 E856.66505
G1 F120 X0.94 Y30.172 E859.41502
G0 F4800 X0.94 Y29.224
G1 F120 X20.774 Y49.059 E861.28092
G0 F4800 X21.651 Y49.059
G1 F120 X49.059 Y21.651 E863.8593
G0 F4800 X49.059 Y20.774
G1 F120 X29.224 Y0.94 E865.72521
G1 F1800 E859.72521
G0 Z3.4
G0 F4800 X27.343 Y0.94
G0 Z1.4
G1 F1800 E865.72521
G1 F120 X0.94 Y27.343 E868.20904
G0 F4800 X0.94 Y26.396
G1 F120 X23.603 Y49.059 E870.34104
G0 F4800 X24.48 Y49.059
G1 F120 X49.059 Y24.48 E872.65328
G0 F4800 X49.059 Y23.603
G1 F120 X26.396 Y0.94 E874.78527
G1 F1800 E868.78527
G0 Z3.4
G0 F4800 X24.516 Y0.939
G0 Z1.4
G1 F1800 E874.78527
G1 F120 X0.939 Y24.516 E877.00325
G0 F4800 X0.939 Y23.567
G1 F120 X26.432 Y49.059 E879.40143
G0 F4800 X27.307 Y49.059
G1 F120 X49.059 Y27.307 E881.44773
G0 F4800 X49.059 Y26.432
G1 F120 X23.567 Y0.939 E883.84591
G1 F1800 E877.84591
G0 Z3.4
G0 F4800 X21.687 Y0.939
G0 Z1.4
G1 F1800 E883.84591
G1 F120 X0.939 Y21.687 E885.79775
G0 F4800 X0.939 Y20.738
G1 F120 X29.26 Y49.059 E888.46202
G0 F4800 X30.136 Y49.059
G1 F120 X49.059 Y30.136 E890.24218
G0 F4800 X49.059 Y29.26
G1 F120 X20.738 Y0.939 E892.90644
G1 F1800 E886.90644
G0 Z3.4
G0 F4800 X18.859 Y0.939
G0 Z1.4
G1 F1800 E892.90644
G1 F120 X0.939 Y18.859 E894.59225
G0 F4800 X0.939 Y17.91
G1 F120 X32.089 Y49.059 E897.5226
G0 F4800 X32.964 Y49.059
G1 F120 X49.059 Y32.964 E899.03672
G0 F4800 X49.059 Y32.089
G1 F120 X17.91 Y0.939 E901.96707
G1 F1800 E895.96707
G0 Z3.4
G0 F4800 X16.03 Y0.939
G0 Z1.4
G1 F1800 E901.96707
G1 F120 X0.939 Y16.03 E903.38674
G0 F4800 X0.939 Y15.081
G1 F120 X34.917 Y49.059 E906.58318
G0 F4800 X35.793 Y49.059
G1 F120 X49.059 Y35.793 E907.83117
G0 F4800 X49.059 Y34.917
G1 F120 X15.081 Y0.939 E911.02761
G1 F1800 E905.02761
G0 Z3.4
G0 F4800 X13.202 Y0.939
G0 Z1.4
G1 F1800 E911.02761
G1 F120 X0.939 Y13.202 E912.18124
G0 F4800 X0.939 Y12.253
G1 F120 X37.746 Y49.059 E915.64377
G0 F4800 X38.621 Y49.059
G1 F120 X49.059 Y38.621 E916.62571
G0 F4800 X49.059 Y37.746
G1 F120 X12.253 Y0.939 E920.08824
G1 F1800 E914.08824
G0 Z3.4
G0 F4800 X10.373 Y0.939
G0 Z1.4
G1 F1800 E920.08824
G1 F120 X0.939 Y10.373 E920.97573
G0 F4800 X0.939 Y9.425
G1 F120 X40.574 Y49.059 E924.7043
G0 F4800 X41.449 Y49.059
G1 F120 X49.059 Y41.449 E925.4202
G0 F4800 X49.059 Y40.574
G1 F120 X9.425 Y0.939 E929.14878
G1 F1800 E923.14878
G0 Z3.4
G0 F4800 X7.545 Y0.939
G0 Z1.4
G1 F1800 E929.14878
G1 F120 X0.939 Y7.545 E929.77023
G0 F4800 X0.939 Y6.596
G1 F120 X43.402 Y49.059 E933.76489
G0 F4800 X44.278 Y49.059
G1 F120 X49.059 Y44.278 E934.21465
G0 F4800 X49.059 Y43.402
G1 F120 X6.596 Y0.939 E938.20931
G1 F1800 E932.20931
G0 Z3.4
G0 F4800 X4.717 Y0.939
G0 Z1.4
G1 F1800 E938.20931
G1 F120 X0.939 Y4.717 E938.56472
G0 F4800 X0.939 Y3.768
G1 F120 X46.231 Y49.059 E942.82547
G0 F4800 X47.106 Y49.059
G1 F120 X49.059 Y47.106 E943.0092
G0 F4800 X49.059 Y46.231
G1 F120 X3.768 Y0.939 E947.26994
G1 F1800 E941.26994
G0 Z3.4
G0 F4800 X1.888 Y0.939
G0 Z1.4
G1 F1800 E947.26994
G1 F120 X0.939 Y1.888 E947.35922
G0 F4800 X0.939 Y0.939
G1 F120 X49.059 Y49.059 E951.88605
; Layer Change GCode
; LAYER:4
M400
M201 X1000 Y1000
M87 B9 D1
G1 F1800 E945.88605
G0 Z3.4
G0 F4800 X0.2 Y49.8 Z3.8
; TYPE:WALL-OUTER
G0 Z1.8
G1 F1800 E951.88605
M400
M87 B9 D0
G1 F120 X0.2 Y0.2 E955.18546
G1 X49.8 Y0.2 E958.48486
G1 X49.8 Y49.8 E961.78427
G1 X0.2 Y49.8 E965.08367
G0 F4800 X0.6 Y49.4
; TYPE:WALL-INNER
G1 F120 X0.6 Y0.6 E968.32986
G1 X49.4 Y0.6 E971.57605
G1 X49.4 Y49.4 E974.82224
G1 X0.6 Y49.4 E978.06843
G0 F4800 X0.975 Y49.059
; TYPE:FILL
G1 F120 X0.94 Y49.023 E978.07177
G0 F4800 X1.852 Y49.059
G1 F120 X49.059 Y1.852 E982.51272
G0 F4800 X49.059 Y0.975
G1 F120 X49.023 Y0.94 E982.51606
G1 F1800 E976.51606
G0 Z3.8
G0 F4800 X47.142 Y0.94
G0 Z1.8
G1 F1800 E982.51606
G1 F120 X0.94 Y47.142 E986.86246
G0 F4800 X0.94 Y46.195
G1 F120 X3.804 Y49.059 E987.13189
G0 F4800 X4.681 Y49.059
G1 F120 X49.059 Y4.681 E991.3067
G0 F4800 X49.059 Y3.804
G1 F120 X46.195 Y0.94 E991.57612
G1 F1800 E985.57612
G0 Z3.8
G0 F4800 X44.314 Y0.94
G0 Z1.8
G1 F1800 E991.57612
G1 F120 X0.94 Y44.314 E995.65648
G0 F4800 X0.94 Y43.366
G1 F120 X6.632 Y49.059 E996.192
G0 F4800 X7.509 Y49.059
G1 F120 X49.059 Y7.509 E1000.10077
G0 F4800 X49.059 Y6.632
G1 F120 X43.366 Y0.94 E1000.63628
G1 F1800 E994.63628
G0 Z3.8
G0 F4800 X41.485 Y0.94
G0 Z1.8
G1 F1800 E1000.63628
G1 F120 X0.94 Y41.485 E1004.45051
G0 F4800 X0.94 Y40.538
G1 F120 X9.461 Y49.059 E1005.25211
G0 F4800 X10.337 Y49.059
G1 F120 X49.059 Y10.337 E1008.89484
G0 F4800 X49.059 Y9.461
G1 F120 X40.538 Y0.94 E1009.69644
G1 F1800 E1003.69644
G0 Z3.8
G0 F4800 X38.657 Y0.94
G0 Z1.8
G1 F1800 E1009.69644
G1 F120 X0.94 Y38.657 E1013.24463
G0 F4800 X0.94 Y37.71
G1 F120 X12.289 Y49.059 E1014.31227
G0 F4800 X13.166 Y49.059
G1 F120 X49.059 Y13.166 E1017.68886
G0 F4800 X49.059 Y12.289
G1 F120 X37.71 Y0.94 E1018.75651
G1 F1800 E1012.75651
G0 Z3.8
G0 F4800 X35.829 Y0.94
G0 Z1.8
G1 F1800 E1018.75651
G1 F120 X0.94 Y35.829 E1022.03865
G0 F4800 X0.94 Y34.881
G1 F120 X15.117 Y49.059 E1023.37238
G0 F4800 X15.994 Y49.059
G1 F120 X49.059 Y15.994 E1026.48294
G0 F4800 X49.059 Y15.117
G1 F120 X34.881 Y0.94 E1027.81667
G1 F1800 E1021.81667
G0 Z3.8
G0 F4800 X33 Y0.94
G0 Z1.8
G1 F1800 E1027.81667
G1 F120 X0.94 Y33 E1030.83268
G0 F4800 X0.94 Y32.053
G1 F120 X17.946 Y49.059 E1032.4325
G0 F4800 X18.823 Y49.059
G1 F120 X49.059 Y18.823 E1035.27692
G0 F4800 X49.059 Y17.946
G1 F120 X32.053 Y0.94 E1036.87674
G1 F1800 E1030.87674
G0 Z3.8
G0 F4800 X30.172 Y0.94
G0 Z1.8
G1 F1800 E1036.87674
G1 F120 X0.94 Y30.172 E1039.6267
G0 F4800 X0.94 Y29.224
G1 F120 X20.774 Y49.059 E1041.49261
G0 F4800 X21.651 Y49.059
G1 F120 X49.059 Y21.651 E1044.07099
G0 F4800 X49.059 Y20.774
G1 F120 X29.224 Y0.94 E1045.9369
G1 F1800 E1039.9369
G0 Z3.8
G0 F4800 X27.343 Y0.94
G0 Z1.8
G1 F1800 E1045.9369
G1 F120 X0.94 Y27.343 E1048.42073
G0 F4800 X0.94 Y26.396
G1 F120 X23.603 Y49.059 E1050.55272
G0 F4800 X24.48 Y49.059
G1 F120 X49.059 Y24.48 E1052.86497
G0 F4800 X49.059 Y23.603
G1 F120 X26.396 Y0.94 E1054.99696
G1 F1800 E1048.99696
G0 Z3.8
G0 F4800 X24.516 Y0.939
G0 Z1.8
G1 F1800 E1054.99696
G1 F120 X0.939 Y24.516 E1057.21494
G0 F4800 X0.939 Y23.567
G1 F120 X26.432 Y49.059 E1059.61312
G0 F4800 X27.307 Y49.059
G1 F120 X49.059 Y27.307 E1061.65941
G0 F4800 X49.059 Y26.432
G1 F120 X23.567 Y0.939 E1064.05759
G1 F1800 E1058.05759
G0 Z3.8
G0 F4800 X21.687 Y0.939
G0 Z1.8
G1 F1800 E1064.05759
G1 F120 X0.939 Y21.687 E1066.00944
G0 F4800 X0.939 Y20.738
G1 F120 X29.26 Y49.059 E1068.6737
G0 F4800 X30.136 Y49.059
G1 F120 X49.059 Y30.136 E1070.45386
G0 F4800 X49.059 Y29.26
G1 F120 X20.738 Y0.939 E1073.11813
G1 F1800 E1067.11813
G0 Z3.8
G0 F4800 X18.859 Y0.939
G0 Z1.8
G1 F1800 E1073.11813
G1 F120 X0.939 Y18.859 E1074.80393
G0 F4800 X0.939 Y17.91
G1 F120 X32.089 Y49.059 E1077.73429
G0 F4800 X32.964 Y49.059
G1 F120 X49.059 Y32.964 E1079.24841
G0 F4800 X49.059 Y32.089
G1 F120 X17.91 Y0.939 E1082.17876
G1 F1800 E1076.17876
G0 Z3.8
G0 F4800 X16.03 Y0.939
G0 Z1.8
G1 F1800 E1082.17876
G1 F120 X0.939 Y16.03 E1083.59843
G0 F4800 X0.939 Y15.081
G1 F120 X34.917 Y49.059 E1086.79487
G0 F4800 X35.793 Y49.059
G1 F120 X49.059 Y35.793 E1088.04285
G0 F4800 X49.059 Y34.917
G1 F120 X15.081 Y0.939 E1091.2393
G1 F1800 E1085.2393
G0 Z3.8
G0 F4800 X13.202 Y0.939
G0 Z1.8
G1 F1800 E1091.2393
G1 F120 X0.939 Y13.202 E1092.39292
G0 F4800 X0.939 Y12.253
G1 F120 X37.746 Y49.059 E1095.85545
G0 F4800 X38.621 Y49.059
G1 F120 X49.059 Y38.621 E1096.8374
G0 F4800 X49.059 Y37.746
G1 F120 X12.253 Y0.939 E1100.29993
G1 F1800 E1094.29993
G0 Z3.8
G0 F4800 X10.373 Y0.939
G0 Z1.8
G1 F1800 E1100.29993
G1 F120 X0.939 Y10.373 E1101.18742
G0 F4800 X0.939 Y9.425
G1 F120 X40.574 Y49.059 E1104.91599
G0 F4800 X41.449 Y49.059
G1 F120 X49.059 Y41.449 E1105.63189
G0 F4800 X49.059 Y40.574
G1 F120 X9.425 Y0.939 E1109.36046
G1 F1800 E1103.36046
G0 Z3.8
G0 F4800 X7.545 Y0.939
G0 Z1.8
G1 F1800 E1109.36046
G1 F120 X0.939 Y7.545 E1109.98191
G0 F4800 X0.939 Y6.596
G1 F120 X43.402 Y49.059 E1113.97657
G0 F4800 X44.278 Y49.059
G1 F120 X49.059 Y44.278 E1114.42634
G0 F4800 X49.059 Y43.402
G1 F120 X6.596 Y0.939 E1118.421
G1 F1800 E1112.421
G0 Z3.8
G0 F4800 X4.717 Y0.939
G0 Z1.8
G1 F1800 E1118.421
G1 F120 X0.939 Y4.717 E1118.77641
G0 F4800 X0.939 Y3.768
G1 F120 X46.231 Y49.059 E1123.03716
G0 F4800 X47.106 Y49.059
G1 F120 X49.059 Y47.106 E1123.22088
G0 F4800 X49.059 Y46.231
G1 F120 X3.768 Y0.939 E1127.48163
G1 F1800 E1121.48163
G0 Z3.8
G0 F4800 X1.888 Y0.939
G0 Z1.8
G1 F1800 E1127.48163
G1 F120 X0.939 Y1.888 E1127.57091
G0 F4800 X0.939 Y0.939
G1 F120 X49.059 Y49.059 E1132.09774
; Layer Change GCode
; LAYER:5
M400
M201 X1000 Y1000
M87 B9 D1
G1 F1800 E1126.09774
G0 Z3.8
G0 F4800 X0.2 Y49.8 Z4.2
; TYPE:WALL-OUTER
G0 Z2.2
G1 F1800 E1132.09774
M400
M87 B9 D0
G1 F120 X0.2 Y0.2 E1135.39715
G1 X49.8 Y0.2 E1138.69655
G1 X49.8 Y49.8 E1141.99596
G1 X0.2 Y49.8 E1145.29536
G0 F4800 X0.6 Y49.4
; TYPE:WALL-INNER
G1 F120 X0.6 Y0.6 E1148.54155
G1 X49.4 Y0.6 E1151.78774
G1 X49.4 Y49.4 E1155.03393
G1 X0.6 Y49.4 E1158.28012
G0 F4800 X0.975 Y49.059
; TYPE:FILL
G1 F120 X0.94 Y49.023 E1158.28346
G0 F4800 X1.852 Y49.059
G1 F120 X49.059 Y1.852 E1162.7244
G0 F4800 X49.059 Y0.975
G1 F120 X49.023 Y0.94 E1162.72774
G1 F1800 E1156.72774
G0 Z4.2
G0 F4800 X47.142 Y0.94
G0 Z2.2
G1 F1800 E1162.72774
G1 F120 X0.94 Y47.142 E1167.07414
G0 F4800 X0.94 Y46.195
G1 F120 X3.804 Y49.059 E1167.34357
G0 F4800 X4.681 Y49.059
G1 F120 X49.059 Y4.681 E1171.51838
G0 F4800 X49.059 Y3.804
G1 F120 X46.195 Y0.94 E1171.78781
G1 F1800 E1165.78781
G0 Z4.2
G0 F4800 X44.314 Y0.94
G0 Z2.2
G1 F1800 E1171.78781
G1 F120 X0.94 Y44.314 E1175.86817
G0 F4800 X0.94 Y43.366
G1 F120 X6.632 Y49.059 E1176.40369
G0 F4800 X7.509 Y49.059
G1 F120 X49.059 Y7.509 E1180.31245
G0 F4800 X49.059 Y6.632
G1 F120 X43.366 Y0.94 E1180.84797
G1 F1800 E1174.84797
G0 Z4.2
G0 F4800 X41.485 Y0.94
G0 Z2.2
G1 F1800 E1180.84797
G1 F120 X0.94 Y41.485 E1184.66219
G0 F4800 X0.94 Y40.538
G1 F120 X9.461 Y49.059 E1185.4638
G0 F4800 X10.337 Y49.059
G1 F120 X49.059 Y10.337 E1189.10653
G0 F4800 X49.059 Y9.461
G1 F120 X40.538 Y0.94 E1189.90813
G1 F1800 E1183.90813
G0 Z4.2
G0 F4800 X38.657 Y0.94
G0 Z2.2
G1 F1800 E1189.90813
G1 F120 X0.94 Y38.657 E1193.45631
G0 F4800 X0.94 Y37.71
G1 F120 X12.289 Y49.059 E1194.52396
G0 F4800 X13.166 Y49.059
G1 F120 X49.059 Y13.166 E1197.90055
G0 F4800 X49.059 Y12.289
G1 F120 X37.71 Y0.94 E1198.9682
G1 F1800 E1192.9682
G0 Z4.2
G0 F4800 X35.829 Y0.94
G0 Z2.2
G1 F1800 E1198.9682
G1 F120 X0.94 Y35.829 E1202.25034
G0 F4800 X0.94 Y34.881
G1 F120 X15.117 Y49.059 E1203.58407
G0 F4800 X15.994 Y49.059
G1 F120 X49.059 Y15.994 E1206.69462
G0 F4800 X49.059 Y15.117
G1 F120 X34.881 Y0.94 E1208.02836
G1 F1800 E1202.02836
G0 Z4.2
G0 F4800 X33 Y0.94
G0 Z2.2
G1 F1800 E1208.02836
G1 F120 X0.94 Y33 E1211.04436
G0 F4800 X0.94 Y32.053
G1 F120 X17.946 Y49.059 E1212.64418
G0 F4800 X18.823 Y49.059
G1 F120 X49.059 Y18.823 E1215.4886
G0 F4800 X49.059 Y17.946
G1 F120 X32.053 Y0.94 E1217.08842
G1 F1800 E1211.08842
G0 Z4.2
G0 F4800 X30.172 Y0.94
G0 Z2.2
G1 F1800 E1217.08842
G1 F120 X0.94 Y30.172 E1219.83839
G0 F4800 X0.94 Y29.224
G1 F120 X20.774 Y49.059 E1221.7043
G0 F4800 X21.651 Y49.059
G1 F120 X49.059 Y21.651 E1224.28267
G0 F4800 X49.059 Y20.774
G1 F120 X29.224 Y0.94 E1226.14858
G1 F1800 E1220.14858
G0 Z4.2
G0 F4800 X27.343 Y0.94
G0 Z2.2
G1 F1800 E1226.14858
G1 F120 X0.94 Y27.343 E1228.63241
G0 F4800 X0.94 Y26.396
G1 F120 X23.603 Y49.059 E1230.76441
G0 F4800 X24.48 Y49.059
G1 F120 X49.059 Y24.48 E1233.07665
G0 F4800 X49.059 Y23.603
G1 F120 X26.396 Y0.94 E1235.20865
G1 F1800 E1229.20865
G0 Z4.2
G0 F4800 X24.516 Y0.939
G0 Z2.2
G1 F1800 E1235.20865
G1 F120 X0.939 Y24.516 E1237.42663
G0 F4800 X0.939 Y23.567
G1 F120 X26.432 Y49.059 E1239.82481
G0 F4800 X27.307 Y49.059
G1 F120 X49.059 Y27.307 E1241.8711
G0 F4800 X49.059 Y26.432
G1 F120 X23.567 Y0.939 E1244.26928
G1 F1800 E1238.26928
G0 Z4.2
G0 F4800 X21.687 Y0.939
G0 Z2.2
G1 F1800 E1244.26928
G1 F120 X0.939 Y21.687 E1246.22112
G0 F4800 X0.939 Y20.738
G1 F120 X29.26 Y49.059 E1248.88539
G0 F4800 X30.136 Y49.059
G1 F120 X49.059 Y30.136 E1250.66555
G0 F4800 X49.059 Y29.26
G1 F120 X20.738 Y0.939 E1253.32982
G1 F1800 E1247.32982
G0 Z4.2
G0 F4800 X18.859 Y0.939
G0 Z2.2
G1 F1800 E1253.32982
G1 F120 X0.939 Y18.859 E1255.01562
G0 F4800 X0.939 Y17.91
G1 F120 X32.089 Y49.059 E1257.94597
G0 F4800 X32.964 Y49.059
G1 F120 X49.059 Y32.964 E1259.46009
G0 F4800 X49.059 Y32.089
G1 F120 X17.91 Y0.939 E1262.39045
G1 F1800 E1256.39045
G0 Z4.2
G0 F4800 X16.03 Y0.939
G0 Z2.2
G1 F1800 E1262.39045
G1 F120 X0.939 Y16.03 E1263.81011
G0 F4800 X0.939 Y15.081
G1 F120 X34.917 Y49.059 E1267.00656
G0 F4800 X35.793 Y49.059
G1 F120 X49.059 Y35.793 E1268.25454
G0 F4800 X49.059 Y34.917
G1 F120 X15.081 Y0.939 E1271.45098
G1 F1800 E1265.45098
G0 Z4.2
G0 F4800 X13.202 Y0.939
G0 Z2.2
G1 F1800 E1271.45098
G1 F120 X0.939 Y13.202 E1272.60461
G0 F4800 X0.939 Y12.253
G1 F120 X37.746 Y49.059 E1276.06714
G0 F4800 X38.621 Y49.059
G1 F120 X49.059 Y38.621 E1277.04908
G0 F4800 X49.059 Y37.746
G1 F120 X12.253 Y0.939 E1280.51161
G1 F1800 E1274.51161
G0 Z4.2
G0 F4800 X10.373 Y0.939
G0 Z2.2
G1 F1800 E1280.51161
G1 F120 X0.939 Y10.373 E1281.39911
G0 F4800 X0.939 Y9.425
G1 F120 X40.574 Y49.059 E1285.12768
G0 F4800 X41.449 Y49.059
G1 F120 X49.059 Y41.449 E1285.84358
G0 F4800 X49.059 Y40.574
G1 F120 X9.425 Y0.939 E1289.57215
G1 F1800 E1283.57215
G0 Z4.2
G0 F4800 X7.545 Y0.939
G0 Z2.2
G1 F1800 E1289.57215
G1 F120 X0.939 Y7.545 E1290.1936
G0 F4800 X0.939 Y6.596
G1 F120 X43.402 Y49.059 E1294.18826
G0 F4800 X44.278 Y49.059
G1 F120 X49.059 Y44.278 E1294.63803
G0 F4800 X49.059 Y43.402
G1 F120 X6.596 Y0.939 E1298.63269
G1 F1800 E1292.63269
G0 Z4.2
G0 F4800 X4.717 Y0.939
G0 Z2.2
G1 F1800 E1298.63269
G1 F120 X0.939 Y4.717 E1298.9881
G0 F4800 X0.939 Y3.768
G1 F120 X46.231 Y49.059 E1303.24884
G0 F4800 X47.106 Y49.059
G1 F120 X49.059 Y47.106 E1303.43257
G0 F4800 X49.059 Y46.231
G1 F120 X3.768 Y0.939 E1307.69332
G1 F1800 E1301.69332
G0 Z4.2
G0 F4800 X1.888 Y0.939
G0 Z2.2
G1 F1800 E1307.69332
G1 F120 X0.939 Y1.888 E1307.78259
G0 F4800 X0.939 Y0.939
G1 F120 X49.059 Y49.059 E1312.30943
; Layer Change GCode
; LAYER:6
M400
M201 X1000 Y1000
M87 B9 D1
G1 F1800 E1306.30943
G0 Z4.2
G0 F4800 X0.2 Y49.8 Z4.6
; TYPE:WALL-OUTER
G0 Z2.6
G1 F1800 E1312.30943
M400
M87 B9 D0
G1 F120 X0.2 Y0.2 E1315.60883
G1 X49.8 Y0.2 E1318.90824
G1 X49.8 Y49.8 E1322.20764
G1 X0.2 Y49.8 E1325.50705
G0 F4800 X0.6 Y49.4
; TYPE:WALL-INNER
G1 F120 X0.6 Y0.6 E1328.75324
G1 X49.4 Y0.6 E1331.99943
G1 X49.4 Y49.4 E1335.24562
G1 X0.6 Y49.4 E1338.49181
G0 F4800 X0.975 Y49.059
; TYPE:FILL
G1 F120 X0.94 Y49.023 E1338.49515
G0 F4800 X1.852 Y49.059
G1 F120 X49.059 Y1.852 E1342.93609
G0 F4800 X49.059 Y0.975
G1 F120 X49.023 Y0.94 E1342.93943
G1 F1800 E1336.93943
G0 Z4.6
G0 F4800 X47.142 Y0.94
G0 Z2.6
G1 F1800 E1342.93943
G1 F120 X0.94 Y47.142 E1347.28583
G0 F4800 X0.94 Y46.195
G1 F120 X3.804 Y49.059 E1347.55526
G0 F4800 X4.681 Y49.059
G1 F120 X49.059 Y4.681 E1351.73007
G0 F4800 X49.059 Y3.804
G1 F120 X46.195 Y0.94 E1351.9995
G1 F1800 E1345.9995
G0 Z4.6
G0 F4800 X44.314 Y0.94
G0 Z2.6
G1 F1800 E1351.9995
G1 F120 X0.94 Y44.314 E1356.07986
G0 F4800 X0.94 Y43.366
G1 F120 X6.632 Y49.059 E1356.61537
G0 F4800 X7.509 Y49.059
G1 F120 X49.059 Y7.509 E1360.52414
G0 F4800 X49.059 Y6.632
G1 F120 X43.366 Y0.94 E1361.05966
G1 F1800 E1355.05966
G0 Z4.6
G0 F4800 X41.485 Y0.94
G0 Z2.6
G1 F1800 E1361.05966
G1 F120 X0.94 Y41.485 E1364.87388
G0 F4800 X0.94 Y40.538
G1 F120 X9.461 Y49.059 E1365.67549
G0 F4800 X10.337 Y49.059
G1 F120 X49.059 Y10.337 E1369.31821
G0 F4800 X49.059 Y9.461
G1 F120 X40.538 Y0.94 E1370.11982
G1 F1800 E1364.11982
G0 Z4.6
G0 F4800 X38.657 Y0.94
G0 Z2.6
G1 F1800 E1370.11982
G1 F120 X0.94 Y38.657 E1373.668
G0 F4800 X0.94 Y37.71
G1 F120 X12.289 Y49.059 E1374.73565
G0 F4800 X13.166 Y49.059
G1 F120 X49.059 Y13.166 E1378.11224
G0 F4800 X49.059 Y12.289
G1 F120 X37.71 Y0.94 E1379.17988
G1 F1800 E1373.17988
G0 Z4.6
G0 F4800 X35.829 Y0.94
G0 Z2.6
G1 F1800 E1379.17988
G1 F120 X0.94 Y35.829 E1382.46203
G0 F4800 X0.94 Y34.881
G1 F120 X15.117 Y49.059 E1383.79576
G0 F4800 X15.994 Y49.059
G1 F120 X49.059 Y15.994 E1386.90631
G0 F4800 X49.059 Y15.117
G1 F120 X34.881 Y0.94 E1388.24004
G1 F1800 E1382.24004
G0 Z4.6
G0 F4800 X33 Y0.94
G0 Z2.6
G1 F1800 E1388.24004
G1 F120 X0.94 Y33 E1391.25605
G0 F4800 X0.94 Y32.053
G1 F120 X17.946 Y49.059 E1392.85587
G0 F4800 X18.823 Y49.059
G1 F120 X49.059 Y18.823 E1395.70029
G0 F4800 X49.059 Y17.946
G1 F120 X32.053 Y0.94 E1397.30011
G1 F1800 E1391.30011
G0 Z4.6
G0 F4800 X30.172 Y0.94
G0 Z2.6
G1 F1800 E1397.30011
G1 F120 X0.94 Y30.172 E1400.05008
G0 F4800 X0.94 Y29.224
G1 F120 X20.774 Y49.059 E1401.91598
G0 F4800 X21.651 Y49.059
G1 F120 X49.059 Y21.651 E1404.49436
G0 F4800 X49.059 Y20.774
G1 F120 X29.224 Y0.94 E1406.36027
G1 F1800 E1400.36027
G0 Z4.6
G0 F4800 X27.343 Y0.94
G0 Z2.6
G1 F1800 E1406.36027
G1 F120 X0.94 Y27.343 E1408.8441
G0 F4800 X0.94 Y26.396
G1 F120 X23.603 Y49.059 E1410.9761
G0 F4800 X24.48 Y49.059
G1 F120 X49.059 Y24.48 E1413.28834
G0 F4800 X49.059 Y23.603
G1 F120 X26.396 Y0.94 E1415.42034
G1 F1800 E1409.42034
G0 Z4.6
G0 F4800 X24.516 Y0.939
G0 Z2.6
G1 F1800 E1415.42034
G1 F120 X0.939 Y24.516 E1417.63832
G0 F4800 X0.939 Y23.567
G1 F120 X26.432 Y49.059 E1420.03649
G0 F4800 X27.307 Y49.059
G1 F120 X49.059 Y27.307 E1422.08279
G0 F4800 X49.059 Y26.432
G1 F120 X23.567 Y0.939 E1424.48097
G1 F1800 E1418.48097
G0 Z4.6
G0 F4800 X21.687 Y0.939
G0 Z2.6
G1 F1800 E1424.48097
G1 F120 X0.939 Y21.687 E1426.43281
G0 F4800 X0.939 Y20.738
G1 F120 X29.26 Y49.059 E1429.09708
G0 F4800 X30.136 Y49.059
G1 F120 X49.059 Y30.136 E1430.87724
G0 F4800 X49.059 Y29.26
G1 F120 X20.738 Y0.939 E1433.5415
G1 F1800 E1427.5415
G0 Z4.6
G0 F4800 X18.859 Y0.939
G0 Z2.6
G1 F1800 E1433.5415
G1 F120 X0.939 Y18.859 E1435.22731
G0 F4800 X0.939 Y17.91
G1 F120 X32.089 Y49.059 E1438.15766
G0 F4800 X32.964 Y49.059
G1 F120 X49.059 Y32.964 E1439.67178
G0 F4800 X49.059 Y32.089
G1 F120 X17.91 Y0.939 E1442.60213
G1 F1800 E1436.60213
G0 Z4.6
G0 F4800 X16.03 Y0.939
G0 Z2.6
G1 F1800 E1442.60213
G1 F120 X0.939 Y16.03 E1444.0218
G0 F4800 X0.939 Y15.081
G1 F120 X34.917 Y49.059 E1447.21824
G0 F4800 X35.793 Y49.059
G1 F120 X49.059 Y35.793 E1448.46623
G0 F4800 X49.059 Y34.917
G1 F120 X15.081 Y0.939 E1451.66267
G1 F1800 E1445.66267
G0 Z4.6
G0 F4800 X13.202 Y0.939
G0 Z2.6
G1 F1800 E1451.66267
G1 F120 X0.939 Y13.202 E1452.8163
G0 F4800 X0.939 Y12.253
G1 F120 X37.746 Y49.059 E1456.27883
G0 F4800 X38.621 Y49.059
G1 F120 X49.059 Y38.621 E1457.26077
G0 F4800 X49.059 Y37.746
G1 F120 X12.253 Y0.939 E1460.7233
G1 F1800 E1454.7233
G0 Z4.6
G0 F4800 X10.373 Y0.939
G0 Z2.6
G1 F1800 E1460.7233
G1 F120 X0.939 Y10.373 E1461.61079
G0 F4800 X0.939 Y9.425
G1 F120 X40.574 Y49.059 E1465.33936
G0 F4800 X41.449 Y49.059
G1 F120 X49.059 Y41.449 E1466.05527
G0 F4800 X49.059 Y40.574
G1 F120 X9.425 Y0.939 E1469.78384
G1 F1800 E1463.78384
G0 Z4.6
G0 F4800 X7.545 Y0.939
G0 Z2.6
G1 F1800 E1469.78384
G1 F120 X0.939 Y7.545 E1470.40529
G0 F4800 X0.939 Y6.596
G1 F120 X43.402 Y49.059 E1474.39995
G0 F4800 X44.278 Y49.059
G1 F120 X49.059 Y44.278 E1474.84971
G0 F4800 X49.059 Y43.402
G1 F120 X6.596 Y0.939 E1478.84437
G1 F1800 E1472.84437
G0 Z4.6
G0 F4800 X4.717 Y0.939
G0 Z2.6
G1 F1800 E1478.84437
G1 F120 X0.939 Y4.717 E1479.19978
G0 F4800 X0.939 Y3.768
G1 F120 X46.231 Y49.059 E1483.46053
G0 F4800 X47.106 Y49.059
G1 F120 X49.059 Y47.106 E1483.64426
G0 F4800 X49.059 Y46.231
G1 F120 X3.768 Y0.939 E1487.905
G1 F1800 E1481.905
G0 Z4.6
G0 F4800 X1.888 Y0.939
G0 Z2.6
G1 F1800 E1487.905
G1 F120 X0.939 Y1.888 E1487.99428
G0 F4800 X0.939 Y0.939
G1 F120 X49.059 Y49.059 E1492.52111
; Layer Change GCode
; LAYER:7
M400
M201 X1000 Y1000
M87 B9 D1
G1 F1800 E1486.52111
G0 Z4.6
G0 F4800 X0.2 Y49.8 Z5
; TYPE:WALL-OUTER
G0 Z3
G1 F1800 E1492.52111
M400
M87 B9 D0
G1 F120 X0.2 Y0.2 E1495.82052
G1 X49.8 Y0.2 E1499.11993
G1 X49.8 Y49.8 E1502.41933
G1 X0.2 Y49.8 E1505.71874
G0 F4800 X0.6 Y49.4
; TYPE:WALL-INNER
G1 F120 X0.6 Y0.6 E1508.96493
G1 X49.4 Y0.6 E1512.21111
G1 X49.4 Y49.4 E1515.4573
G1 X0.6 Y49.4 E1518.70349
G0 F4800 X0.975 Y49.059
; TYPE:FILL
G1 F120 X0.94 Y49.023 E1518.70683
G0 F4800 X1.852 Y49.059
G1 F120 X49.059 Y1.852 E1523.14778
G0 F4800 X49.059 Y0.975
G1 F120 X49.023 Y0.94 E1523.15112
G1 F1800 E1517.15112
G0 Z5
G0 F4800 X47.142 Y0.94
G0 Z3
G1 F1800 E1523.15112
G1 F120 X0.94 Y47.142 E1527.49752
G0 F4800 X0.94 Y46.195
G1 F120 X3.804 Y49.059 E1527.76695
G0 F4800 X4.681 Y49.059
G1 F120 X49.059 Y4.681 E1531.94176
G0 F4800 X49.059 Y3.804
G1 F120 X46.195 Y0.94 E1532.21118
G1 F1800 E1526.21118
G0 Z5
G0 F4800 X44.314 Y0.94
G0 Z3
G1 F1800 E1532.21118
G1 F120 X0.94 Y44.314 E1536.29154
G0 F4800 X0.94 Y43.366
G1 F120 X6.632 Y49.059 E1536.82706
G0 F4800 X7.509 Y49.059
G1 F120 X49.059 Y7.509 E1540.73583
G0 F4800 X49.059 Y6.632
G1 F120 X43.366 Y0.94 E1541.27134
G1 F1800 E1535.27134
G0 Z5
G0 F4800 X41.485 Y0.94
G0 Z3
G1 F1800 E1541.27134
G1 F120 X0.94 Y41.485 E1545.08557
G0 F4800 X0.94 Y40.538
G1 F120 X9.461 Y49.059 E1545.88717
G0 F4800 X10.337 Y49.059
G1 F120 X49.059 Y10.337 E1549.5299
G0 F4800 X49.059 Y9.461
G1 F120 X40.538 Y0.94 E1550.3315
G1 F1800 E1544.3315
G0 Z5
G0 F4800 X38.657 Y0.94
G0 Z3
G1 F1800 E1550.3315
G1 F120 X0.94 Y38.657 E1553.87969
G0 F4800 X0.94 Y37.71
G1 F120 X12.289 Y49.059 E1554.94733
G0 F4800 X13.166 Y49.059
G1 F120 X49.059 Y13.166 E1558.32393
G0 F4800 X49.059 Y12.289
G1 F120 X37.71 Y0.94 E1559.39157
G1 F1800 E1553.39157
G0 Z5
G0 F4800 X35.829 Y0.94
G0 Z3
G1 F1800 E1559.39157
G1 F120 X0.94 Y35.829 E1562.67371
G0 F4800 X0.94 Y34.881
G1 F120 X15.117 Y49.059 E1564.00745
G0 F4800 X15.994 Y49.059
G1 F120 X49.059 Y15.994 E1567.118
G0 F4800 X49.059 Y15.117
G1 F120 X34.881 Y0.94 E1568.45173
G1 F1800 E1562.45173
G0 Z5
G0 F4800 X33 Y0.94
G0 Z3
G1 F1800 E1568.45173
G1 F120 X0.94 Y33 E1571.46774
G0 F4800 X0.94 Y32.053
G1 F120 X17.946 Y49.059 E1573.06756
G0 F4800 X18.823 Y49.059
G1 F120 X49.059 Y18.823 E1575.91198
G0 F4800 X49.059 Y17.946
G1 F120 X32.053 Y0.94 E1577.5118
G1 F1800 E1571.5118
G0 Z5
G0 F4800 X30.172 Y0.94
G0 Z3
G1 F1800 E1577.5118
G1 F120 X0.94 Y30.172 E1580.26176
G0 F4800 X0.94 Y29.224
G1 F120 X20.774 Y49.059 E1582.12767
G0 F4800 X21.651 Y49.059
G1 F120 X49.059 Y21.651 E1584.70605
G0 F4800 X49.059 Y20.774
G1 F120 X29.224 Y0.94 E1586.57196
G1 F1800 E1580.57196
G0 Z5
G0 F4800 X27.343 Y0.94
G0 Z3
G1 F1800 E1586.57196
G1 F120 X0.94 Y27.343 E1589.05579
G0 F4800 X0.94 Y26.396
G1 F120 X23.603 Y49.059 E1591.18778
G0 F4800 X24.48 Y49.059
G1 F120 X49.059 Y24.48 E1593.50003
G0 F4800 X49.059 Y23.603
G1 F120 X26.396 Y0.94 E1595.63202
G1 F1800 E1589.63202
G0 Z5
G0 F4800 X24.516 Y0.939
G0 Z3
G1 F1800 E1595.63202
G1 F120 X0.939 Y24.516 E1597.85
G0 F4800 X0.939 Y23.567
G1 F120 X26.432 Y49.059 E1600.24818
G0 F4800 X27.307 Y49.059
G1 F120 X49.059 Y27.307 E1602.29448
G0 F4800 X49.059 Y26.432
G1 F120 X23.567 Y0.939 E1604.69265
G1 F1800 E1598.69265
G0 Z5
G0 F4800 X21.687 Y0.939
G0 Z3
G1 F1800 E1604.69265
G1 F120 X0.939 Y21.687 E1606.6445
G0 F4800 X0.939 Y20.738
G1 F120 X29.26 Y49.059 E1609.30876
G0 F4800 X30.136 Y49.059
G1 F120 X49.059 Y30.136 E1611.08892
G0 F4800 X49.059 Y29.26
G1 F120 X20.738 Y0.939 E1613.75319
G1 F1800 E1607.75319
G0 Z5
G0 F4800 X18.859 Y0.939
G0 Z3
G1 F1800 E1613.75319
G1 F120 X0.939 Y18.859 E1615.43899
G0 F4800 X0.939 Y17.91
G1 F120 X32.089 Y49.059 E1618.36935
G0 F4800 X32.964 Y49.059
G1 F120 X49.059 Y32.964 E1619.88347
G0 F4800 X49.059 Y32.089
G1 F120 X17.91 Y0.939 E1622.81382
G1 F1800 E1616.81382
G0 Z5
G0 F4800 X16.03 Y0.939
G0 Z3
G1 F1800 E1622.81382
G1 F120 X0.939 Y16.03 E1624.23349
G0 F4800 X0.939 Y15.081
G1 F120 X34.917 Y49.059 E1627.42993
G0 F4800 X35.793 Y49.059
G1 F120 X49.059 Y35.793 E1628.67791
G0 F4800 X49.059 Y34.917
G1 F120 X15.081 Y0.939 E1631.87436
G1 F1800 E1625.87436
G0 Z5
G0 F4800 X13.202 Y0.939
G0 Z3
G1 F1800 E1631.87436
G1 F120 X0.939 Y13.202 E1633.02798
G0 F4800 X0.939 Y12.253
G1 F120 X37.746 Y49.059 E1636.49051
G0 F4800 X38.621 Y49.059
G1 F120 X49.059 Y38.621 E1637.47246
G0 F4800 X49.059 Y37.746
G1 F120 X12.253 Y0.939 E1640.93499
G1 F1800 E1634.93499
G0 Z5
G0 F4800 X10.373 Y0.939
G0 Z3
G1 F1800 E1640.93499
G1 F120 X0.939 Y10.373 E1641.82248
G0 F4800 X0.939 Y9.425
G1 F120 X40.574 Y49.059 E1645.55105
G0 F4800 X41.449 Y49.059
G1 F120 X49.059 Y41.449 E1646.26695
G0 F4800 X49.059 Y40.574
G1 F120 X9.425 Y0.939 E1649.99552
G1 F1800 E1643.99552
G0 Z5
G0 F4800 X7.545 Y0.939
G0 Z3
G1 F1800 E1649.99552
G1 F120 X0.939 Y7.545 E1650.61698
G0 F4800 X0.939 Y6.596
G1 F120 X43.402 Y49.059 E1654.61163
G0 F4800 X44.278 Y49.059
G1 F120 X49.059 Y44.278 E1655.0614
G0 F4800 X49.059 Y43.402
G1 F120 X6.596 Y0.939 E1659.05606
G1 F1800 E1653.05606
G0 Z5
G0 F4800 X4.717 Y0.939
G0 Z3
G1 F1800 E1659.05606
G1 F120 X0.939 Y4.717 E1659.41147
G0 F4800 X0.939 Y3.768
G1 F120 X46.231 Y49.059 E1663.67222
G0 F4800 X47.106 Y49.059
G1 F120 X49.059 Y47.106 E1663.85594
G0 F4800 X49.059 Y46.231
G1 F120 X3.768 Y0.939 E1668.11669
G1 F1800 E1662.11669
G0 Z5
G0 F4800 X1.888 Y0.939
G0 Z3
G1 F1800 E1668.11669
G1 F120 X0.939 Y1.888 E1668.20597
G0 F4800 X0.939 Y0.939
G1 F120 X49.059 Y49.059 E1672.7328
; Layer Change GCode
; LAYER:8
M400
M201 X1000 Y1000
M87 B9 D1
G1 F1800 E1666.7328
G0 Z5
G0 F4800 X0.2 Y49.8 Z5.4
; TYPE:WALL-OUTER
G0 Z3.4
G1 F1800 E1672.7328
M400
M87 B9 D0
G1 F120 X0.2 Y0.2 E1676.03221
G1 X49.8 Y0.2 E1679.33161
G1 X49.8 Y49.8 E1682.63102
G1 X0.2 Y49.8 E1685.93042
G0 F4800 X0.6 Y49.4
; TYPE:WALL-INNER
G1 F120 X0.6 Y0.6 E1689.17661
G1 X49.4 Y0.6 E1692.4228
G1 X49.4 Y49.4 E1695.66899
G1 X0.6 Y49.4 E1698.91518
G0 F4800 X0.975 Y49.059
; TYPE:FILL
G1 F120 X0.94 Y49.023 E1698.91852
G0 F4800 X1.852 Y49.059
G1 F120 X49.059 Y1.852 E1703.35946
G0 F4800 X49.059 Y0.975
G1 F120 X49.023 Y0.94 E1703.3628
G1 F1800 E1697.3628
G0 Z5.4
G0 F4800 X47.142 Y0.94
G0 Z3.4
G1 F1800 E1703.3628
G1 F120 X0.94 Y47.142 E1707.70921
G0 F4800 X0.94 Y46.195
G1 F120 X3.804 Y49.059 E1707.97863
G0 F4800 X4.681 Y49.059
G1 F120 X49.059 Y4.681 E1712.15344
G0 F4800 X49.059 Y3.804
G1 F120 X46.195 Y0.94 E1712.42287
G1 F1800 E1706.42287
G0 Z5.4
G0 F4800 X44.314 Y0.94
G0 Z3.4
G1 F1800 E1712.42287
G1 F120 X0.94 Y44.314 E1716.50323
G0 F4800 X0.94 Y43.366
G1 F120 X6.632 Y49.059 E1717.03875
G0 F4800 X7.509 Y49.059
G1 F120 X49.059 Y7.509 E1720.94752
G0 F4800 X49.059 Y6.632
G1 F120 X43.366 Y0.94 E1721.48303
G1 F1800 E1715.48303
G0 Z5.4
G0 F4800 X41.485 Y0.94
G0 Z3.4
G1 F1800 E1721.48303
G1 F120 X0.94 Y41.485 E1725.29726
G0 F4800 X0.94 Y40.538
G1 F120 X9.461 Y49.059 E1726.09886
G0 F4800 X10.337 Y49.059
G1 F120 X49.059 Y10.337 E1729.74159
G0 F4800 X49.059 Y9.461
G1 F120 X40.538 Y0.94 E1730.54319
G1 F1800 E1724.54319
G0 Z5.4
G0 F4800 X38.657 Y0.94
G0 Z3.4
G1 F1800 E1730.54319
G1 F120 X0.94 Y38.657 E1734.09138
G0 F4800 X0.94 Y37.71
G1 F120 X12.289 Y49.059 E1735.15902
G0 F4800 X13.166 Y49.059
G1 F120 X49.059 Y13.166 E1738.53561
G0 F4800 X49.059 Y12.289
G1 F120 X37.71 Y0.94 E1739.60326
G1 F1800 E1733.60326
G0 Z5.4
G0 F4800 X35.829 Y0.94
G0 Z3.4
G1 F1800 E1739.60326
G1 F120 X0.94 Y35.829 E1742.8854
G0 F4800 X0.94 Y34.881
G1 F120 X15.117 Y49.059 E1744.21913
G0 F4800 X15.994 Y49.059
G1 F120 X49.059 Y15.994 E1747.32969
G0 F4800 X49.059 Y15.117
G1 F120 X34.881 Y0.94 E1748.66342
G1 F1800 E1742.66342
G0 Z5.4
G0 F4800 X33 Y0.94
G0 Z3.4
G1 F1800 E1748.66342
G1 F120 X0.94 Y33 E1751.67943
G0 F4800 X0.94 Y32.053
G1 F120 X17.946 Y49.059 E1753.27925
G0 F4800 X18.823 Y49.059
G1 F120 X49.059 Y18.823 E1756.12366
G0 F4800 X49.059 Y17.946
G1 F120 X32.053 Y0.94 E1757.72348
G1 F1800 E1751.72348
G0 Z5.4
G0 F4800 X30.172 Y0.94
G0 Z3.4
G1 F1800 E1757.72348
G1 F120 X0.94 Y30.172 E1760.47345
G0 F4800 X0.94 Y29.224
G1 F120 X20.774 Y49.059 E1762.33936
G0 F4800 X21.651 Y49.059
G1 F120 X49.059 Y21.651 E1764.91774
G0 F4800 X49.059 Y20.774
G1 F120 X29.224 Y0.94 E1766.78364
G1 F1800 E1760.78364
G0 Z5.4
G0 F4800 X27.343 Y0.94
G0 Z3.4
G1 F1800 E1766.78364
G1 F120 X0.94 Y27.343 E1769.26748
G0 F4800 X0.94 Y26.396
G1 F120 X23.603 Y49.059 E1771.39947
G0 F4800 X24.48 Y49.059
G1 F120 X49.059 Y24.48 E1773.71171
G0 F4800 X49.059 Y23.603
G1 F120 X26.396 Y0.94 E1775.84371
G1 F1800 E1769.84371
G0 Z5.4
G0 F4800 X24.516 Y0.939
G0 Z3.4
G1 F1800 E1775.84371
G1 F120 X0.939 Y24.516 E1778.06169
G0 F4800 X0.939 Y23.567
G1 F120 X26.432 Y49.059 E1780.45987
G0 F4800 X27.307 Y49.059
G1 F120 X49.059 Y27.307 E1782.50616
G0 F4800 X49.059 Y26.432
G1 F120 X23.567 Y0.939 E1784.90434
G1 F1800 E1778.90434
G0 Z5.4
G0 F4800 X21.687 Y0.939
G0 Z3.4
G1 F1800 E1784.90434
G1 F120 X0.939 Y21.687 E1786.85618
G0 F4800 X0.939 Y20.738
G1 F120 X29.26 Y49.059 E1789.52045
G0 F4800 X30.136 Y49.059
G1 F120 X49.059 Y30.136 E1791.30061
G0 F4800 X49.059 Y29.26
G1 F120 X20.738 Y0.939 E1793.96488
G1 F1800 E1787.96488
G0 Z5.4
G0 F4800 X18.859 Y0.939
G0 Z3.4
G1 F1800 E1793.96488
G1 F120 X0.939 Y18.859 E1795.65068
G0 F4800 X0.939 Y17.91
G1 F120 X32.089 Y49.059 E1798.58103
G0 F4800 X32.964 Y49.059
G1 F120 X49.059 Y32.964 E1800.09515
G0 F4800 X49.059 Y32.089
G1 F120 X17.91 Y0.939 E1803.02551
G1 F1800 E1797.02551
G0 Z5.4
G0 F4800 X16.03 Y0.939
G0 Z3.4
G1 F1800 E1803.02551
G1 F120 X0.939 Y16.03 E1804.44518
G0 F4800 X0.939 Y15.081
G1 F120 X34.917 Y49.059 E1807.64162
G0 F4800 X35.793 Y49.059
G1 F120 X49.059 Y35.793 E1808.8896
G0 F4800 X49.059 Y34.917
G1 F120 X15.081 Y0.939 E1812.08604
G1 F1800 E1806.08604
G0 Z5.4
G0 F4800 X13.202 Y0.939
G0 Z3.4
G1 F1800 E1812.08604
G1 F120 X0.939 Y13.202 E1813.23967
G0 F4800 X0.939 Y12.253
G1 F120 X37.746 Y49.059 E1816.7022
G0 F4800 X38.621 Y49.059
G1 F120 X49.059 Y38.621 E1817.68414
G0 F4800 X49.059 Y37.746
G1 F120 X12.253 Y0.939 E1821.14667
G1 F1800 E1815.14667
G0 Z5.4
G0 F4800 X10.373 Y0.939
G0 Z3.4
G1 F1800 E1821.14667
G1 F120 X0.939 Y10.373 E1822.03417
G0 F4800 X0.939 Y9.425
G1 F120 X40.574 Y49.059 E1825.76274
G0 F4800 X41.449 Y49.059
G1 F120 X49.059 Y41.449 E1826.47864
G0 F4800 X49.059 Y40.574
G1 F120 X9.425 Y0.939 E1830.20721
G1 F1800 E1824.20721
G0 Z5.4
G0 F4800 X7.545 Y0.939
G0 Z3.4
G1 F1800 E1830.20721
G1 F120 X0.939 Y7.545 E1830.82866
G0 F4800 X0.939 Y6.596
G1 F120 X43.402 Y49.059 E1834.82332
G0 F4800 X44.278 Y49.059
G1 F120 X49.059 Y44.278 E1835.27309
G0 F4800 X49.059 Y43.402
G1 F120 X6.596 Y0.939 E1839.26775
G1 F1800 E1833.26775
G0 Z5.4
G0 F4800 X4.717 Y0.939
G0 Z3.4
G1 F1800 E1839.26775
G1 F120 X0.939 Y4.717 E1839.62316
G0 F4800 X0.939 Y3.768
G1 F120 X46.231 Y49.059 E1843.8839
G0 F4800 X47.106 Y49.059
G1 F120 X49.059 Y47.106 E1844.06763
G0 F4800 X49.059 Y46.231
G1 F120 X3.768 Y0.939 E1848.32838
G1 F1800 E1842.32838
G0 Z5.4
G0 F4800 X1.888 Y0.939
G0 Z3.4
G1 F1800 E1848.32838
G1 F120 X0.939 Y1.888 E1848.41765
G0 F4800 X0.939 Y0.939
G1 F120 X49.059 Y49.059 E1852.94449
; Layer Change GCode
; LAYER:9
M400
M201 X1000 Y1000
M87 B9 D1
G1 F1800 E1846.94449
G0 Z5.4
G0 F4800 X0.2 Y49.8 Z5.8
; TYPE:WALL-OUTER
G0 Z3.8
G1 F1800 E1852.94449
M400
M87 B9 D0
G1 F120 X0.2 Y0.2 E1856.24389
G1 X49.8 Y0.2 E1859.5433
G1 X49.8 Y49.8 E1862.8427
G1 X0.2 Y49.8 E1866.14211
G0 F4800 X0.6 Y49.4
; TYPE:WALL-INNER
G1 F120 X0.6 Y0.6 E1869.3883
G1 X49.4 Y0.6 E1872.63449
G1 X49.4 Y49.4 E1875.88068
G1 X0.6 Y49.4 E1879.12687
G0 F4800 X0.975 Y49.059
; TYPE:FILL
G1 F120 X0.94 Y49.023 E1879.13021
G0 F4800 X1.852 Y49.059
G1 F120 X49.059 Y1.852 E1883.57115
G0 F4800 X49.059 Y0.975
G1 F120 X49.023 Y0.94 E1883.57449
G1 F1800 E1877.57449
G0 Z5.8
G0 F4800 X47.142 Y0.94
G0 Z3.8
G1 F1800 E1883.57449
G1 F120 X0.94 Y47.142 E1887.92089
G0 F4800 X0.94 Y46.195
G1 F120 X3.804 Y49.059 E1888.19032
G0 F4800 X4.681 Y49.059
G1 F120 X49.059 Y4.681 E1892.36513
G0 F4800 X49.059 Y3.804
G1 F120 X46.195 Y0.94 E1892.63456
G1 F1800 E1886.63456
G0 Z5.8
G0 F4800 X44.314 Y0.94
G0 Z3.8
G1 F1800 E1892.63456
G1 F120 X0.94 Y44.314 E1896.71492
G0 F4800 X0.94 Y43.366
G1 F120 X6.632 Y49.059 E1897.25043
G0 F4800 X7.509 Y49.059
G1 F120 X49.059 Y7.509 E1901.1592
G0 F4800 X49.059 Y6.632
G1 F120 X43.366 Y0.94 E1901.69472
G1 F1800 E1895.69472
G0 Z5.8
G0 F4800 X41.485 Y0.94
G0 Z3.8
G1 F1800 E1901.69472
G1 F120 X0.94 Y41.485 E1905.50894
G0 F4800 X0.94 Y40.538
G1 F120 X9.461 Y49.059 E1906.31055
G0 F4800 X10.337 Y49.059
G1 F120 X49.059 Y10.337 E1909.95327
G0 F4800 X49.059 Y9.461
G1 F120 X40.538 Y0.94 E1910.75488
G1 F1800 E1904.75488
G0 Z5.8
G0 F4800 X38.657 Y0.94
G0 Z3.8
G1 F1800 E1910.75488
G1 F120 X0.94 Y38.657 E1914.30306
G0 F4800 X0.94 Y37.71
G1 F120 X12.289 Y49.059 E1915.37071
G0 F4800 X13.166 Y49.059
G1 F120 X49.059 Y13.166 E1918.7473
G0 F4800 X49.059 Y12.289
G1 F120 X37.71 Y0.94 E1919.81494
G1 F1800 E1913.81494
G0 Z5.8
G0 F4800 X35.829 Y0.94
G0 Z3.8
G1 F1800 E1919.81494
G1 F120 X0.94 Y35.829 E1923.09709
G0 F4800 X0.94 Y34.881
G1 F120 X15.117 Y49.059 E1924.43082
G0 F4800 X15.994 Y49.059
G1 F120 X49.059 Y15.994 E1927.54137
G0 F4800 X49.059 Y15.117
G1 F120 X34.881 Y0.94 E1928.8751
G1 F1800 E1922.8751
G0 Z5.8
G0 F4800 X33 Y0.94
G0 Z3.8
G1 F1800 E1928.8751
G1 F120 X0.94 Y33 E1931.89111
G0 F4800 X0.94 Y32.053
G1 F120 X17.946 Y49.059 E1933.49093
G0 F4800 X18.823 Y49.059
G1 F120 X49.059 Y18.823 E1936.33535
G0 F4800 X49.059 Y17.946
G1 F120 X32.053 Y0.94 E1937.93517
G1 F1800 E1931.93517
G0 Z5.8
G0 F4800 X30.172 Y0.94
G0 Z3.8
G1 F1800 E1937.93517
G1 F120 X0.94 Y30.172 E1940.68514
G0 F4800 X0.94 Y29.224
G1 F120 X20.774 Y49.059 E1942.55105
G0 F4800 X21.651 Y49.059
G1 F120 X49.059 Y21.651 E1945.12942
G0 F4800 X49.059 Y20.774
G1 F120 X29.224 Y0.94 E1946.99533
G1 F1800 E1940.99533
G0 Z5.8
G0 F4800 X27.343 Y0.94
G0 Z3.8
G1 F1800 E1946.99533
G1 F120 X0.94 Y27.343 E1949.47916
G0 F4800 X0.94 Y26.396
G1 F120 X23.603 Y49.059 E1951.61116
G0 F4800 X24.48 Y49.059
G1 F120 X49.059 Y24.48 E1953.9234
G0 F4800 X49.059 Y23.603
G1 F120 X26.396 Y0.94 E1956.0554
G1 F1800 E1950.0554
G0 Z5.8
G0 F4800 X24.516 Y0.939
G0 Z3.8
G1 F1800 E1956.0554
G1 F120 X0.939 Y24.516 E1958.27338
G0 F4800 X0.939 Y23.567
G1 F120 X26.432 Y49.059 E1960.67155
G0 F4800 X27.307 Y49.059
G1 F120 X49.059 Y27.307 E1962.71785
G0 F4800 X49.059 Y26.432
G1 F120 X23.567 Y0.939 E1965.11603
G1 F1800 E1959.11603
G0 Z5.8
G0 F4800 X21.687 Y0.939
G0 Z3.8
G1 F1800 E1965.11603
G1 F120 X0.939 Y21.687 E1967.06787
G0 F4800 X0.939 Y20.738
G1 F120 X29.26 Y49.059 E1969.73214
G0 F4800 X30.136 Y49.059
G1 F120 X49.059 Y30.136 E1971.5123
G0 F4800 X49.059 Y29.26
G1 F120 X20.738 Y0.939 E1974.17656
G1 F1800 E1968.17656
G0 Z5.8
G0 F4800 X18.859 Y0.939
G0 Z3.8
G1 F1800 E1974.17656
G1 F120 X0.939 Y18.859 E1975.86237
G0 F4800 X0.939 Y17.91
G1 F120 X32.089 Y49.059 E1978.79272
G0 F4800 X32.964 Y49.059
G1 F120 X49.059 Y32.964 E1980.30684
G0 F4800 X49.059 Y32.089
G1 F120 X17.91 Y0.939 E1983.23719
G1 F1800 E1977.23719
G0 Z5.8
G0 F4800 X16.03 Y0.939
G0 Z3.8
G1 F1800 E1983.23719
G1 F120 X0.939 Y16.03 E1984.65686
G0 F4800 X0.939 Y15.081
G1 F120 X34.917 Y49.059 E1987.8533
G0 F4800 X35.793 Y49.059
G1 F120 X49.059 Y35.793 E1989.10129
G0 F4800 X49.059 Y34.917
G1 F120 X15.081 Y0.939 E1992.29773
G1 F1800 E1986.29773
G0 Z5.8
G0 F4800 X13.202 Y0.939
G0 Z3.8
G1 F1800 E1992.29773
G1 F120 X0.939 Y13.202 E1993.45136
G0 F4800 X0.939 Y12.253
G1 F120 X37.746 Y49.059 E1996.91389
G0 F4800 X38.621 Y49.059
G1 F120 X49.059 Y38.621 E1997.89583
G0 F4800 X49.059 Y37.746
G1 F120 X12.253 Y0.939 E2001.35836
G1 F1800 E1995.35836
G0 Z5.8
G0 F4800 X10.373 Y0.939
G0 Z3.8
G1 F1800 E2001.35836
G1 F120 X0.939 Y10.373 E2002.24585
G0 F4800 X0.939 Y9.425
G1 F120 X40.574 Y49.059 E2005.97442
G0 F4800 X41.449 Y49.059
G1 F120 X49.059 Y41.449 E2006.69033
G0 F4800 X49.059 Y40.574
G1 F120 X9.425 Y0.939 E2010.4189
G1 F1800 E2004.4189
G0 Z5.8
G0 F4800 X7.545 Y0.939
G0 Z3.8
G1 F1800 E2010.4189
G1 F120 X0.939 Y7.545 E2011.04035
G0 F4800 X0.939 Y6.596
G1 F120 X43.402 Y49.059 E2015.03501
G0 F4800 X44.278 Y49.059
G1 F120 X49.059 Y44.278 E2015.48478
G0 F4800 X49.059 Y43.402
G1 F120 X6.596 Y0.939 E2019.47943
G1 F1800 E2013.47943
G0 Z5.8
G0 F4800 X4.717 Y0.939
G0 Z3.8
G1 F1800 E2019.47943
G1 F120 X0.939 Y4.717 E2019.83485
G0 F4800 X0.939 Y3.768
G1 F120 X46.231 Y49.059 E2024.09559
G0 F4800 X47.106 Y49.059
G1 F120 X49.059 Y47.106 E2024.27932
G0 F4800 X49.059 Y46.231
G1 F120 X3.768 Y0.939 E2028.54006
G1 F1800 E2022.54006
G0 Z5.8
G0 F4800 X1.888 Y0.939
G0 Z3.8
G1 F1800 E2028.54006
G1 F120 X0.939 Y1.888 E2028.62934
G0 F4800 X0.939 Y0.939
G1 F120 X49.059 Y49.059 E2033.15618
; Layer Change GCode
; LAYER:10
M400
M201 X1000 Y1000
M87 B9 D1
G1 F1800 E2027.15618
G0 Z5.8
G0 F4800 X0.2 Y49.8 Z6.2
; TYPE:WALL-OUTER
G0 Z4.2
G1 F1800 E2033.15618
M400
M87 B9 D0
G1 F120 X0.2 Y0.2 E2036.45558
G1 X49.8 Y0.2 E2039.75499
G1 X49.8 Y49.8 E2043.05439
G1 X0.2 Y49.8 E2046.3538
G0 F4800 X0.6 Y49.4
; TYPE:WALL-INNER
G1 F120 X0.6 Y0.6 E2049.59999
G1 X49.4 Y0.6 E2052.84618
G1 X49.4 Y49.4 E2056.09236
G1 X0.6 Y49.4 E2059.33855
G0 F4800 X0.975 Y49.059
; TYPE:FILL
G1 F120 X0.94 Y49.023 E2059.34189
G0 F4800 X1.852 Y49.059
G1 F120 X49.059 Y1.852 E2063.78284
G0 F4800 X49.059 Y0.975
G1 F120 X49.023 Y0.94 E2063.78618
G1 F1800 E2057.78618
G0 Z6.2
G0 F4800 X47.142 Y0.94
G0 Z4.2
G1 F1800 E2063.78618
G1 F120 X0.94 Y47.142 E2068.13258
G0 F4800 X0.94 Y46.195
G1 F120 X3.804 Y49.059 E2068.40201
G0 F4800 X4.681 Y49.059
G1 F120 X49.059 Y4.681 E2072.57682
G0 F4800 X49.059 Y3.804
G1 F120 X46.195 Y0.94 E2072.84624
G1 F1800 E2066.84624
G0 Z6.2
G0 F4800 X44.314 Y0.94
G0 Z4.2
G1 F1800 E2072.84624
G1 F120 X0.94 Y44.314 E2076.9266
G0 F4800 X0.94 Y43.366
G1 F120 X6.632 Y49.059 E2077.46212
G0 F4800 X7.509 Y49.059
G1 F120 X49.059 Y7.509 E2081.37089
G0 F4800 X49.059 Y6.632
G1 F120 X43.366 Y0.94 E2081.9064
G1 F1800 E2075.9064
G0 Z6.2
G0 F4800 X41.485 Y0.94
G0 Z4.2
G1 F1800 E2081.9064
G1 F120 X0.94 Y41.485 E2085.72063
G0 F4800 X0.94 Y40.538
G1 F120 X9.461 Y49.059 E2086.52223
G0 F4800 X10.337 Y49.059
G1 F120 X49.059 Y10.337 E2090.16496
G0 F4800 X49.059 Y9.461
G1 F120 X40.538 Y0.94 E2090.96656
G1 F1800 E2084.96656
G0 Z6.2
G0 F4800 X38.657 Y0.94
G0 Z4.2
G1 F1800 E2090.96656
G1 F120 X0.94 Y38.657 E2094.51475
G0 F4800 X0.94 Y37.71
G1 F120 X12.289 Y49.059 E2095.58239
G0 F4800 X13.166 Y49.059
G1 F120 X49.059 Y13.166 E2098.95899
G0 F4800 X49.059 Y12.289
G1 F120 X37.71 Y0.94 E2100.02663
G1 F1800 E2094.02663
G0 Z6.2
G0 F4800 X35.829 Y0.94
G0 Z4.2
G1 F1800 E2100.02663
G1 F120 X0.94 Y35.829 E2103.30877
G0 F4800 X0.94 Y34.881
G1 F120 X15.117 Y49.059 E2104.64251
G0 F4800 X15.994 Y49.059
G1 F120 X49.059 Y15.994 E2107.75306
G0 F4800 X49.059 Y15.117
G1 F120 X34.881 Y0.94 E2109.08679
G1 F1800 E2103.08679
G0 Z6.2
G0 F4800 X33 Y0.94
G0 Z4.2
G1 F1800 E2109.08679
G1 F120 X0.94 Y33 E2112.1028
G0 F4800 X0.94 Y32.053
G1 F120 X17.946 Y49.059 E2113.70262
G0 F4800 X18.823 Y49.059
G1 F120 X49.059 Y18.823 E2116.54704
G0 F4800 X49.059 Y17.946
G1 F120 X32.053 Y0.94 E2118.14686
G1 F1800 E2112.14686
G0 Z6.2
G0 F4800 X30.172 Y0.94
G0 Z4.2
G1 F1800 E2118.14686
G1 F120 X0.94 Y30.172 E2120.89682
G0 F4800 X0.94 Y29.224
G1 F120 X20.774 Y49.059 E2122.76273
G0 F4800 X21.651 Y49.059
G1 F120 X49.059 Y21.651 E2125.34111
G0 F4800 X49.059 Y20.774
G1 F120 X29.224 Y0.94 E2127.20702
G1 F1800 E2121.20702
G0 Z6.2
G0 F4800 X27.343 Y0.94
G0 Z4.2
G1 F1800 E2127.20702
G1 F120 X0.94 Y27.343 E2129.69085
G0 F4800 X0.94 Y26.396
G1 F120 X23.603 Y49.059 E2131.82285
G0 F4800 X24.48 Y49.059
G1 F120 X49.059 Y24.48 E2134.13509
G0 F4800 X49.059 Y23.603
G1 F120 X26.396 Y0.94 E2136.26708
G1 F1800 E2130.26708
G0 Z6.2
G0 F4800 X24.516 Y0.939
G0 Z4.2
G1 F1800 E2136.26708
G1 F120 X0.939 Y24.516 E2138.48506
G0 F4800 X0.939 Y23.567
G1 F120 X26.432 Y49.059 E2140.88324
G0 F4800 X27.307 Y49.059
G1 F120 X49.059 Y27.307 E2142.92954
G0 F4800 X49.059 Y26.432
G1 F120 X23.567 Y0.939 E2145.32771
G1 F1800 E2139.32771
G0 Z6.2
G0 F4800 X21.687 Y0.939
G0 Z4.2
G1 F1800 E2145.32771
G1 F120 X0.939 Y21.687 E2147.27956
G0 F4800 X0.939 Y20.738
G1 F120 X29.26 Y49.059 E2149.94382
G0 F4800 X30.136 Y49.059
G1 F120 X49.059 Y30.136 E2151.72398
G0 F4800 X49.059 Y29.26
G1 F120 X20.738 Y0.939 E2154.38825
G1 F1800 E2148.38825
G0 Z6.2
G0 F4800 X18.859 Y0.939
G0 Z4.2
G1 F1800 E2154.38825
G1 F120 X0.939 Y18.859 E2156.07405
G0 F4800 X0.939 Y17.91
G1 F120 X32.089 Y49.059 E2159.00441
G0 F4800 X32.964 Y49.059
G1 F120 X49.059 Y32.964 E2160.51853
G0 F4800 X49.059 Y32.089
G1 F120 X17.91 Y0.939 E2163.44888
G1 F1800 E2157.44888
G0 Z6.2
G0 F4800 X16.03 Y0.939
G0 Z4.2
G1 F1800 E2163.44888
G1 F120 X0.939 Y16.03 E2164.86855
G0 F4800 X0.939 Y15.081
G1 F120 X34.917 Y49.059 E2168.06499
G0 F4800 X35.793 Y49.059
G1 F120 X49.059 Y35.793 E2169.31298
G0 F4800 X49.059 Y34.917
G1 F120 X15.081 Y0.939 E2172.50942
G1 F1800 E2166.50942
G0 Z6.2
G0 F4800 X13.202 Y0.939
G0 Z4.2
G1 F1800 E2172.50942
G1 F120 X0.939 Y13.202 E2173.66305
G0 F4800 X0.939 Y12.253
G1 F120 X37.746 Y49.059 E2177.12558
G0 F4800 X38.621 Y49.059
G1 F120 X49.059 Y38.621 E2178.10752
G0 F4800 X49.059 Y37.746
G1 F120 X12.253 Y0.939 E2181.57005
G1 F1800 E2175.57005
G0 Z6.2
G0 F4800 X10.373 Y0.939
G0 Z4.2
G1 F1800 E2181.57005
G1 F120 X0.939 Y10.373 E2182.45754
G0 F4800 X0.939 Y9.425
G1 F120 X40.574 Y49.059 E2186.18611
G0 F4800 X41.449 Y49.059
G1 F120 X49.059 Y41.449 E2186.90201
G0 F4800 X49.059 Y40.574
G1 F120 X9.425 Y0.939 E2190.63058
G1 F1800 E2184.63058
G0 Z6.2
G0 F4800 X7.545 Y0.939
G0 Z4.2
G1 F1800 E2190.63058
G1 F120 X0.939 Y7.545 E2191.25204
G0 F4800 X0.939 Y6.596
G1 F120 X43.402 Y49.059 E2195.2467
G0 F4800 X44.278 Y49.059
G1 F120 X49.059 Y44.278 E2195.69646
G0 F4800 X49.059 Y43.402
G1 F120 X6.596 Y0.939 E2199.69112
G1 F1800 E2193.69112
G0 Z6.2
G0 F4800 X4.717 Y0.939
G0 Z4.2
G1 F1800 E2199.69112
G1 F120 X0.939 Y4.717 E2200.04653
G0 F4800 X0.939 Y3.768
G1 F120 X46.231 Y49.059 E2204.30728
G0 F4800 X47.106 Y49.059
G1 F120 X49.059 Y47.106 E2204.491
G0 F4800 X49.059 Y46.231
G1 F120 X3.768 Y0.939 E2208.75175
G1 F1800 E2202.75175
G0 Z6.2
G0 F4800 X1.888 Y0.939
G0 Z4.2
G1 F1800 E2208.75175
G1 F120 X0.939 Y1.888 E2208.84103
G0 F4800 X0.939 Y0.939
G1 F120 X49.059 Y49.059 E2213.36786
; Layer Change GCode
; LAYER:11
M400
M201 X1000 Y1000
M87 B9 D1
G1 F1800 E2207.36786
G0 Z6.2
G0 F4800 X0.2 Y49.8 Z6.6
; TYPE:WALL-OUTER
G0 Z4.6
G1 F1800 E2213.36786
M400
M87 B9 D0
G1 F120 X0.2 Y0.2 E2216.66727
G1 X49.8 Y0.2 E2219.96667
G1 X49.8 Y49.8 E2223.26608
G1 X0.2 Y49.8 E2226.56548
G0 F4800 X0.6 Y49.4
; TYPE:WALL-INNER
G1 F120 X0.6 Y0.6 E2229.81167
G1 X49.4 Y0.6 E2233.05786
G1 X49.4 Y49.4 E2236.30405
G1 X0.6 Y49.4 E2239.55024
G0 F4800 X0.975 Y49.059
; TYPE:FILL
G1 F120 X0.94 Y49.023 E2239.55358
G0 F4800 X1.852 Y49.059
G1 F120 X49.059 Y1.852 E2243.99453
G0 F4800 X49.059 Y0.975
G1 F120 X49.023 Y0.94 E2243.99787
G1 F1800 E2237.99787
G0 Z6.6
G0 F4800 X47.142 Y0.94
G0 Z4.6
G1 F1800 E2243.99787
G1 F120 X0.94 Y47.142 E2248.34427
G0 F4800 X0.94 Y46.195
G1 F120 X3.804 Y49.059 E2248.61369
G0 F4800 X4.681 Y49.059
G1 F120 X49.059 Y4.681 E2252.7885
G0 F4800 X49.059 Y3.804
G1 F120 X46.195 Y0.94 E2253.05793
G1 F1800 E2247.05793
G0 Z6.6
G0 F4800 X44.314 Y0.94
G0 Z4.6
G1 F1800 E2253.05793
G1 F120 X0.94 Y44.314 E2257.13829
G0 F4800 X0.94 Y43.366
G1 F120 X6.632 Y49.059 E2257.67381
G0 F4800 X7.509 Y49.059
G1 F120 X49.059 Y7.509 E2261.58258
G0 F4800 X49.059 Y6.632
G1 F120 X43.366 Y0.94 E2262.11809
G1 F1800 E2256.11809
G0 Z6.6
G0 F4800 X41.485 Y0.94
G0 Z4.6
G1 F1800 E2262.11809
G1 F120 X0.94 Y41.485 E2265.93232
G0 F4800 X0.94 Y40.538
G1 F120 X9.461 Y49.059 E2266.73392
G0 F4800 X10.337 Y49.059
G1 F120 X49.059 Y10.337 E2270.37665
G0 F4800 X49.059 Y9.461
G1 F120 X40.538 Y0.94 E2271.17825
G1 F1800 E2265.17825
G0 Z6.6
G0 F4800 X38.657 Y0.94
G0 Z4.6
G1 F1800 E2271.17825
G1 F120 X0.94 Y38.657 E2274.72644
G0 F4800 X0.94 Y37.71
G1 F120 X12.289 Y49.059 E2275.79408
G0 F4800 X13.166 Y49.059
G1 F120 X49.059 Y13.166 E2279.17067
G0 F4800 X49.059 Y12.289
G1 F120 X37.71 Y0.94 E2280.23832
G1 F1800 E2274.23832
G0 Z6.6
G0 F4800 X35.829 Y0.94
G0 Z4.6
G1 F1800 E2280.23832
G1 F120 X0.94 Y35.829 E2283.52046
G0 F4800 X0.94 Y34.881
G1 F120 X15.117 Y49.059 E2284.85419
G0 F4800 X15.994 Y49.059
G1 F120 X49.059 Y15.994 E2287.96475
G0 F4800 X49.059 Y15.117
G1 F120 X34.881 Y0.94 E2289.29848
G1 F1800 E2283.29848
G0 Z6.6
G0 F4800 X33 Y0.94
G0 Z4.6
G1 F1800 E2289.29848
G1 F120 X0.94 Y33 E2292.31449
G0 F4800 X0.94 Y32.053
G1 F120 X17.946 Y49.059 E2293.91431
G0 F4800 X18.823 Y49.059
G1 F120 X49.059 Y18.823 E2296.75872
G0 F4800 X49.059 Y17.946
G1 F120 X32.053 Y0.94 E2298.35854
G1 F1800 E2292.35854
G0 Z6.6
G0 F4800 X30.172 Y0.94
G0 Z4.6
G1 F1800 E2298.35854
G1 F120 X0.94 Y30.172 E2301.10851
G0 F4800 X0.94 Y29.224
G1 F120 X20.774 Y49.059 E2302.97442
G0 F4800 X21.651 Y49.059
G1 F120 X49.059 Y21.651 E2305.5528
G0 F4800 X49.059 Y20.774
G1 F120 X29.224 Y0.94 E2307.4187
G1 F1800 E2301.4187
G0 Z6.6
G0 F4800 X27.343 Y0.94
G0 Z4.6
G1 F1800 E2307.4187
G1 F120 X0.94 Y27.343 E2309.90254
G0 F4800 X0.94 Y26.396
G1 F120 X23.603 Y49.059 E2312.03453
G0 F4800 X24.48 Y49.059
G1 F120 X49.059 Y24.48 E2314.34677
G0 F4800 X49.059 Y23.603
G1 F120 X26.396 Y0.94 E2316.47877
G1 F1800 E2310.47877
G0 Z6.6
G0 F4800 X24.516 Y0.939
G0 Z4.6
G1 F1800 E2316.47877
G1 F120 X0.939 Y24.516 E2318.69675
G0 F4800 X0.939 Y23.567
G1 F120 X26.432 Y49.059 E2321.09493
G0 F4800 X27.307 Y49.059
G1 F120 X49.059 Y27.307 E2323.14122
G0 F4800 X49.059 Y26.432
G1 F120 X23.567 Y0.939 E2325.5394
G1 F1800 E2319.5394
G0 Z6.6
G0 F4800 X21.687 Y0.939
G0 Z4.6
G1 F1800 E2325.5394
G1 F120 X0.939 Y21.687 E2327.49125
G0 F4800 X0.939 Y20.738
G1 F120 X29.26 Y49.059 E2330.15551
G0 F4800 X30.136 Y49.059
G1 F120 X49.059 Y30.136 E2331.93567
G0 F4800 X49.059 Y29.26
G1 F120 X20.738 Y0.939 E2334.59994
G1 F1800 E2328.59994
G0 Z6.6
G0 F4800 X18.859 Y0.939
G0 Z4.6
G1 F1800 E2334.59994
G1 F120 X0.939 Y18.859 E2336.28574
G0 F4800 X0.939 Y17.91
G1 F120 X32.089 Y49.059 E2339.2161
G0 F4800 X32.964 Y49.059
G1 F120 X49.059 Y32.964 E2340.73021
G0 F4800 X49.059 Y32.089
G1 F120 X17.91 Y0.939 E2343.66057
G1 F1800 E2337.66057
G0 Z6.6
G0 F4800 X16.03 Y0.939
G0 Z4.6
G1 F1800 E2343.66057
G1 F120 X0.939 Y16.03 E2345.08024
G0 F4800 X0.939 Y15.081
G1 F120 X34.917 Y49.059 E2348.27668
G0 F4800 X35.793 Y49.059
G1 F120 X49.059 Y35.793 E2349.52466
G0 F4800 X49.059 Y34.917
G1 F120 X15.081 Y0.939 E2352.7211
G1 F1800 E2346.7211
G0 Z6.6
G0 F4800 X13.202 Y0.939
G0 Z4.6
G1 F1800 E2352.7211
G1 F120 X0.939 Y13.202 E2353.87473
G0 F4800 X0.939 Y12.253
G1 F120 X37.746 Y49.059 E2357.33726
G0 F4800 X38.621 Y49.059
G1 F120 X49.059 Y38.621 E2358.31921
G0 F4800 X49.059 Y37.746
G1 F120 X12.253 Y0.939 E2361.78174
G1 F1800 E2355.78174
G0 Z6.6
G0 F4800 X10.373 Y0.939
G0 Z4.6
G1 F1800 E2361.78174
G1 F120 X0.939 Y10.373 E2362.66923
G0 F4800 X0.939 Y9.425
G1 F120 X40.574 Y49.059 E2366.3978
G0 F4800 X41.449 Y49.059
G1 F120 X49.059 Y41.449 E2367.1137
G0 F4800 X49.059 Y40.574
G1 F120 X9.425 Y0.939 E2370.84227
G1 F1800 E2364.84227
G0 Z6.6
G0 F4800 X7.545 Y0.939
G0 Z4.6
G1 F1800 E2370.84227
G1 F120 X0.939 Y7.545 E2371.46372
G0 F4800 X0.939 Y6.596
G1 F120 X43.402 Y49.059 E2375.45838
G0 F4800 X44.278 Y49.059
G1 F120 X49.059 Y44.278 E2375.90815
G0 F4800 X49.059 Y43.402
G1 F120 X6.596 Y0.939 E2379.90281
G1 F1800 E2373.90281
G0 Z6.6
G0 F4800 X4.717 Y0.939
G0 Z4.6
G1 F1800 E2379.90281
G1 F120 X0.939 Y4.717 E2380.25822
G0 F4800 X0.939 Y3.768
G1 F120 X46.231 Y49.059 E2384.51897
G0 F4800 X47.106 Y49.059
G1 F120 X49.059 Y47.106 E2384.70269
G0 F4800 X49.059 Y46.231
G1 F120 X3.768 Y0.939 E2388.96344
G1 F1800 E2382.96344
G0 Z6.6
G0 F4800 X1.888 Y0.939
G0 Z4.6
G1 F1800 E2388.96344
G1 F120 X0.939 Y1.888 E2389.05271
G0 F4800 X0.939 Y0.939
G1 F120 X49.059 Y49.059 E2393.57955
; Layer Change GCode
; LAYER:12
M400
M201 X1000 Y1000
M87 B9 D1
G1 F1800 E2387.57955
G0 Z6.6
G0 F4800 X0.2 Y49.8 Z7
; TYPE:WALL-OUTER
G0 Z5
G1 F1800 E2393.57955
M400
M87 B9 D0
G1 F120 X0.2 Y0.2 E2396.87895
G1 X49.8 Y0.2 E2400.17836
G1 X49.8 Y49.8 E2403.47777
G1 X0.2 Y49.8 E2406.77717
G0 F4800 X0.6 Y49.4
; TYPE:WALL-INNER
G1 F120 X0.6 Y0.6 E2410.02336
G1 X49.4 Y0.6 E2413.26955
G1 X49.4 Y49.4 E2416.51574
G1 X0.6 Y49.4 E2419.76193
G0 F4800 X0.975 Y49.059
; TYPE:FILL
G1 F120 X0.94 Y49.023 E2419.76527
G0 F4800 X1.852 Y49.059
G1 F120 X49.059 Y1.852 E2424.20621
G0 F4800 X49.059 Y0.975
G1 F120 X49.023 Y0.94 E2424.20955
G1 F1800 E2418.20955
G0 Z7
G0 F4800 X47.142 Y0.94
G0 Z5
G1 F1800 E2424.20955
G1 F120 X0.94 Y47.142 E2428.55595
G0 F4800 X0.94 Y46.195
G1 F120 X3.804 Y49.059 E2428.82538
G0 F4800 X4.681 Y49.059
G1 F120 X49.059 Y4.681 E2433.00019
G0 F4800 X49.059 Y3.804
G1 F120 X46.195 Y0.94 E2433.26962
G1 F1800 E2427.26962
G0 Z7
G0 F4800 X44.314 Y0.94
G0 Z5
G1 F1800 E2433.26962
G1 F120 X0.94 Y44.314 E2437.34998
G0 F4800 X0.94 Y43.366
G1 F120 X6.632 Y49.059 E2437.88549
G0 F4800 X7.509 Y49.059
G1 F120 X49.059 Y7.509 E2441.79426
G0 F4800 X49.059 Y6.632
G1 F120 X43.366 Y0.94 E2442.32978
G1 F1800 E2436.32978
G0 Z7
G0 F4800 X41.485 Y0.94
G0 Z5
G1 F1800 E2442.32978
G1 F120 X0.94 Y41.485 E2446.144
G0 F4800 X0.94 Y40.538
G1 F120 X9.461 Y49.059 E2446.94561
G0 F4800 X10.337 Y49.059
G1 F120 X49.059 Y10.337 E2450.58834
G0 F4800 X49.059 Y9.461
G1 F120 X40.538 Y0.94 E2451.38994
G1 F1800 E2445.38994
G0 Z7
G0 F4800 X38.657 Y0.94
G0 Z5
G1 F1800 E2451.38994
G1 F120 X0.94 Y38.657 E2454.93812
G0 F4800 X0.94 Y37.71
G1 F120 X12.289 Y49.059 E2456.00577
G0 F4800 X13.166 Y49.059
G1 F120 X49.059 Y13.166 E2459.38236
G0 F4800 X49.059 Y12.289
G1 F120 X37.71 Y0.94 E2460.45001
G1 F1800 E2454.45001
G0 Z7
G0 F4800 X35.829 Y0.94
G0 Z5
G1 F1800 E2460.45001
G1 F120 X0.94 Y35.829 E2463.73215
G0 F4800 X0.94 Y34.881
G1 F120 X15.117 Y49.059 E2465.06588
G0 F4800 X15.994 Y49.059
G1 F120 X49.059 Y15.994 E2468.17643
G0 F4800 X49.059 Y15.117
G1 F120 X34.881 Y0.94 E2469.51017
G1 F1800 E2463.51017
G0 Z7
G0 F4800 X33 Y0.94
G0 Z5
G1 F1800 E2469.51017
G1 F120 X0.94 Y33 E2472.52617
G0 F4800 X0.94 Y32.053
G1 F120 X17.946 Y49.059 E2474.12599
G0 F4800 X18.823 Y49.059
G1 F120 X49.059 Y18.823 E2476.97041
G0 F4800 X49.059 Y17.946
G1 F120 X32.053 Y0.94 E2478.57023
G1 F1800 E2472.57023
G0 Z7
G0 F4800 X30.172 Y0.94
G0 Z5
G1 F1800 E2478.57023
G1 F120 X0.94 Y30.172 E2481.3202
G0 F4800 X0.94 Y29.224
G1 F120 X20.774 Y49.059 E2483.18611
G0 F4800 X21.651 Y49.059
G1 F120 X49.059 Y21.651 E2485.76448
G0 F4800 X49.059 Y20.774
G1 F120 X29.224 Y0.94 E2487.63039
G1 F1800 E2481.63039
G0 Z7
G0 F4800 X27.343 Y0.94
G0 Z5
G1 F1800 E2487.63039
G1 F120 X0.94 Y27.343 E2490.11422
G0 F4800 X0.94 Y26.396
G1 F120 X23.603 Y49.059 E2492.24622
G0 F4800 X24.48 Y49.059
G1 F120 X49.059 Y24.48 E2494.55846
G0 F4800 X49.059 Y23.603
G1 F120 X26.396 Y0.94 E2496.69046
G1 F1800 E2490.69046
G0 Z7
G0 F4800 X24.516 Y0.939
G0 Z5
G1 F1800 E2496.69046
G1 F120 X0.939 Y24.516 E2498.90844
G0 F4800 X0.939 Y23.567
G1 F120 X26.432 Y49.059 E2501.30662
G0 F4800 X27.307 Y49.059
G1 F120 X49.059 Y27.307 E2503.35291
G0 F4800 X49.059 Y26.432
G1 F120 X23.567 Y0.939 E2505.75109
G1 F1800 E2499.75109
G0 Z7
G0 F4800 X21.687 Y0.939
G0 Z5
G1 F1800 E2505.75109
G1 F120 X0.939 Y21.687 E2507.70293
G0 F4800 X0.939 Y20.738
G1 F120 X29.26 Y49.059 E2510.3672
G0 F4800 X30.136 Y49.059
G1 F120 X49.059 Y30.136 E2512.14736
G0 F4800 X49.059 Y29.26
G1 F120 X20.738 Y0.939 E2514.81162
G1 F1800 E2508.81162
G0 Z7
G0 F4800 X18.859 Y0.939
G0 Z5
G1 F1800 E2514.81162
G1 F120 X0.939 Y18.859 E2516.49743
G0 F4800 X0.939 Y17.91
G1 F120 X32.089 Y49.059 E2519.42778
G0 F4800 X32.964 Y49.059
G1 F120 X49.059 Y32.964 E2520.9419
G0 F4800 X49.059 Y32.089
G1 F120 X17.91 Y0.939 E2523.87226
G1 F1800 E2517.87226
G0 Z7
G0 F4800 X16.03 Y0.939
G0 Z5
G1 F1800 E2523.87226
G1 F120 X0.939 Y16.03 E2525.29192
G0 F4800 X0.939 Y15.081
G1 F120 X34.917 Y49.059 E2528.48837
G0 F4800 X35.793 Y49.059
G1 F120 X49.059 Y35.793 E2529.73635
G0 F4800 X49.059 Y34.917
G1 F120 X15.081 Y0.939 E2532.93279
G1 F1800 E2526.93279
G0 Z7
G0 F4800 X13.202 Y0.939
G0 Z5
G1 F1800 E2532.93279
G1 F120 X0.939 Y13.202 E2534.08642
G0 F4800 X0.939 Y12.253
G1 F120 X37.746 Y49.059 E2537.54895
G0 F4800 X38.621 Y49.059
G1 F120 X49.059 Y38.621 E2538.53089
G0 F4800 X49.059 Y37.746
G1 F120 X12.253 Y0.939 E2541.99342
G1 F1800 E2535.99342
G0 Z7
G0 F4800 X10.373 Y0.939
G0 Z5
G1 F1800 E2541.99342
G1 F120 X0.939 Y10.373 E2542.88091
G0 F4800 X0.939 Y9.425
G1 F120 X40.574 Y49.059 E2546.60949
G0 F4800 X41.449 Y49.059
G1 F120 X49.059 Y41.449 E2547.32539
G0 F4800 X49.059 Y40.574
G1 F120 X9.425 Y0.939 E2551.05396
G1 F1800 E2545.05396
G0 Z7
G0 F4800 X7.545 Y0.939
G0 Z5
G1 F1800 E2551.05396
G1 F120 X0.939 Y7.545 E2551.67541
G0 F4800 X0.939 Y6.596
G1 F120 X43.402 Y49.059 E2555.67007
G0 F4800 X44.278 Y49.059
G1 F120 X49.059 Y44.278 E2556.11984
G0 F4800 X49.059 Y43.402
G1 F120 X6.596 Y0.939 E2560.1145
G1 F1800 E2554.1145
G0 Z7
G0 F4800 X4.717 Y0.939
G0 Z5
G1 F1800 E2560.1145
G1 F120 X0.939 Y4.717 E2560.46991
G0 F4800 X0.939 Y3.768
G1 F120 X46.231 Y49.059 E2564.73065
G0 F4800 X47.106 Y49.059
G1 F120 X49.059 Y47.106 E2564.91438
G0 F4800 X49.059 Y46.231
G1 F120 X3.768 Y0.939 E2569.17513
G1 F1800 E2563.17513
G0 Z7
G0 F4800 X1.888 Y0.939
G0 Z5
G1 F1800 E2569.17513
G1 F120 X0.939 Y1.888 E2569.2644
G0 F4800 X0.939 Y0.939
G1 F120 X49.059 Y49.059 E2573.79124
; Layer Change GCode
; LAYER:13
M400
M201 X1000 Y1000
M87 B9 D1
G1 F1800 E2567.79124
G0 Z7
G0 F4800 X0.2 Y49.8 Z7.4
; TYPE:WALL-OUTER
G0 Z5.4
G1 F1800 E2573.79124
M400
M87 B9 D0
G1 F120 X0.2 Y0.2 E2577.09064
G1 X49.8 Y0.2 E2580.39005
G1 X49.8 Y49.8 E2583.68945
G1 X0.2 Y49.8 E2586.98886
G0 F4800 X0.6 Y49.4
; TYPE:WALL-INNER
G1 F120 X0.6 Y0.6 E2590.23505
G1 X49.4 Y0.6 E2593.48124
G1 X49.4 Y49.4 E2596.72743
G1 X0.6 Y49.4 E2599.97361
G0 F4800 X0.975 Y49.059
; TYPE:FILL
G1 F120 X0.94 Y49.023 E2599.97695
G0 F4800 X1.852 Y49.059
G1 F120 X49.059 Y1.852 E2604.4179
G0 F4800 X49.059 Y0.975
G1 F120 X49.023 Y0.94 E2604.42124
G1 F1800 E2598.42124
G0 Z7.4
G0 F4800 X47.142 Y0.94
G0 Z5.4
G1 F1800 E2604.42124
G1 F120 X0.94 Y47.142 E2608.76764
G0 F4800 X0.94 Y46.195
G1 F120 X3.804 Y49.059 E2609.03707
G0 F4800 X4.681 Y49.059
G1 F120 X49.059 Y4.681 E2613.21188
G0 F4800 X49.059 Y3.804
G1 F120 X46.195 Y0.94 E2613.48131
G1 F1800 E2607.48131
G0 Z7.4
G0 F4800 X44.314 Y0.94
G0 Z5.4
G1 F1800 E2613.48131
G1 F120 X0.94 Y44.314 E2617.56167
G0 F4800 X0.94 Y43.366
G1 F120 X6.632 Y49.059 E2618.09718
G0 F4800 X7.509 Y49.059
G1 F120 X49.059 Y7.509 E2622.00595
G0 F4800 X49.059 Y6.632
G1 F120 X43.366 Y0.94 E2622.54147
G1 F1800 E2616.54147
G0 Z7.4
G0 F4800 X41.485 Y0.94
G0 Z5.4
G1 F1800 E2622.54147
G1 F120 X0.94 Y41.485 E2626.35569
G0 F4800 X0.94 Y40.538
G1 F120 X9.461 Y49.059 E2627.15729
G0 F4800 X10.337 Y49.059
G1 F120 X49.059 Y10.337 E2630.80002
G0 F4800 X49.059 Y9.461
G1 F120 X40.538 Y0.94 E2631.60163
G1 F1800 E2625.60163
G0 Z7.4
G0 F4800 X38.657 Y0.94
G0 Z5.4
G1 F1800 E2631.60163
G1 F120 X0.94 Y38.657 E2635.14981
G0 F4800 X0.94 Y37.71
G1 F120 X12.289 Y49.059 E2636.21745
G0 F4800 X13.166 Y49.059
G1 F120 X49.059 Y13.166 E2639.59405
G0 F4800 X49.059 Y12.289
G1 F120 X37.71 Y0.94 E2640.66169
G1 F1800 E2634.66169
G0 Z7.4
G0 F4800 X35.829 Y0.94
G0 Z5.4
G1 F1800 E2640.66169
G1 F120 X0.94 Y35.829 E2643.94384
G0 F4800 X0.94 Y34.881
G1 F120 X15.117 Y49.059 E2645.27757
G0 F4800 X15.994 Y49.059
G1 F120 X49.059 Y15.994 E2648.38812
G0 F4800 X49.059 Y15.117
G1 F120 X34.881 Y0.94 E2649.72185
G1 F1800 E2643.72185
G0 Z7.4
G0 F4800 X33 Y0.94
G0 Z5.4
G1 F1800 E2649.72185
G1 F120 X0.94 Y33 E2652.73786
G0 F4800 X0.94 Y32.053
G1 F120 X17.946 Y49.059 E2654.33768
G0 F4800 X18.823 Y49.059
G1 F120 X49.059 Y18.823 E2657.1821
G0 F4800 X49.059 Y17.946
G1 F120 X32.053 Y0.94 E2658.78192
G1 F1800 E2652.78192
G0 Z7.4
G0 F4800 X30.172 Y0.94
G0 Z5.4
G1 F1800 E2658.78192
G1 F120 X0.94 Y30.172 E2661.53189
G0 F4800 X0.94 Y29.224
G1 F120 X20.774 Y49.059 E2663.39779
G0 F4800 X21.651 Y49.059
G1 F120 X49.059 Y21.651 E2665.97617
G0 F4800 X49.059 Y20.774
G1 F120 X29.224 Y0.94 E2667.84208
G1 F1800 E2661.84208
G0 Z7.4
G0 F4800 X27.343 Y0.94
G0 Z5.4
G1 F1800 E2667.84208
G1 F120 X0.94 Y27.343 E2670.32591
G0 F4800 X0.94 Y26.396
G1 F120 X23.603 Y49.059 E2672.45791
G0 F4800 X24.48 Y49.059
G1 F120 X49.059 Y24.48 E2674.77015
G0 F4800 X49.059 Y23.603
G1 F120 X26.396 Y0.94 E2676.90214
G1 F1800 E2670.90214
G0 Z7.4
G0 F4800 X24.516 Y0.939
G0 Z5.4
G1 F1800 E2676.90214
G1 F120 X0.939 Y24.516 E2679.12012
G0 F4800 X0.939 Y23.567
G1 F120 X26.432 Y49.059 E2681.5183
G0 F4800 X27.307 Y49.059
G1 F120 X49.059 Y27.307 E2683.5646
G0 F4800 X49.059 Y26.432
G1 F120 X23.567 Y0.939 E2685.96278
G1 F1800 E2679.96278
G0 Z7.4
G0 F4800 X21.687 Y0.939
G0 Z5.4
G1 F1800 E2685.96278
G1 F120 X0.939 Y21.687 E2687.91462
G0 F4800 X0.939 Y20.738
G1 F120 X29.26 Y49.059 E2690.57889
G0 F4800 X30.136 Y49.059
G1 F120 X49.059 Y30.136 E2692.35905
G0 F4800 X49.059 Y29.26
G1 F120 X20.738 Y0.939 E2695.02331
G1 F1800 E2689.02331
G0 Z7.4
G0 F4800 X18.859 Y0.939
G0 Z5.4
G1 F1800 E2695.02331
G1 F120 X0.939 Y18.859 E2696.70912
G0 F4800 X0.939 Y17.91
G1 F120 X32.089 Y49.059 E2699.63947
G0 F4800 X32.964 Y49.059
G1 F120 X49.059 Y32.964 E2701.15359
G0 F4800 X49.059 Y32.089
G1 F120 X17.91 Y0.939 E2704.08394
G1 F1800 E2698.08394
G0 Z7.4
G0 F4800 X16.03 Y0.939
G0 Z5.4
G1 F1800 E2704.08394
G1 F120 X0.939 Y16.03 E2705.50361
G0 F4800 X0.939 Y15.081
G1 F120 X34.917 Y49.059 E2708.70005
G0 F4800 X35.793 Y49.059
G1 F120 X49.059 Y35.793 E2709.94804
G0 F4800 X49.059 Y34.917
G1 F120 X15.081 Y0.939 E2713.14448
G1 F1800 E2707.14448
G0 Z7.4
G0 F4800 X13.202 Y0.939
G0 Z5.4
G1 F1800 E2713.14448
G1 F120 X0.939 Y13.202 E2714.29811
G0 F4800 X0.939 Y12.253
G1 F120 X37.746 Y49.059 E2717.76064
G0 F4800 X38.621 Y49.059
G1 F120 X49.059 Y38.621 E2718.74258
G0 F4800 X49.059 Y37.746
G1 F120 X12.253 Y0.939 E2722.20511
G1 F1800 E2716.20511
G0 Z7.4
G0 F4800 X10.373 Y0.939
G0 Z5.4
G1 F1800 E2722.20511
G1 F120 X0.939 Y10.373 E2723.0926
G0 F4800 X0.939 Y9.425
G1 F120 X40.574 Y49.059 E2726.82117
G0 F4800 X41.449 Y49.059
G1 F120 X49.059 Y41.449 E2727.53707
G0 F4800 X49.059 Y40.574
G1 F120 X9.425 Y0.939 E2731.26565
G1 F1800 E2725.26565
G0 Z7.4
G0 F4800 X7.545 Y0.939
G0 Z5.4
G1 F1800 E2731.26565
G1 F120 X0.939 Y7.545 E2731.8871
G0 F4800 X0.939 Y6.596
G1 F120 X43.402 Y49.059 E2735.88176
G0 F4800 X44.278 Y49.059
G1 F120 X49.059 Y44.278 E2736.33152
G0 F4800 X49.059 Y43.402
G1 F120 X6.596 Y0.939 E2740.32618
G1 F1800 E2734.32618
G0 Z7.4
G0 F4800 X4.717 Y0.939
G0 Z5.4
G1 F1800 E2740.32618
G1 F120 X0.939 Y4.717 E2740.68159
G0 F4800 X0.939 Y3.768
G1 F120 X46.231 Y49.059 E2744.94234
G0 F4800 X47.106 Y49.059
G1 F120 X49.059 Y47.106 E2745.12607
G0 F4800 X49.059 Y46.231
G1 F120 X3.768 Y0.939 E2749.38681
G1 F1800 E2743.38681
G0 Z7.4
G0 F4800 X1.888 Y0.939
G0 Z5.4
G1 F1800 E2749.38681
G1 F120 X0.939 Y1.888 E2749.47609
G0 F4800 X0.939 Y0.939
G1 F120 X49.059 Y49.059 E2754.00292
; Layer Change GCode
; LAYER:14
M400
M201 X1000 Y1000
M87 B9 D1
G1 F1800 E2748.00292
G0 Z7.4
G0 F4800 X0.2 Y49.8 Z7.8
; TYPE:WALL-OUTER
G0 Z5.8
G1 F1800 E2754.00292
M400
M87 B9 D0
G1 F120 X0.2 Y0.2 E2757.30233
G1 X49.8 Y0.2 E2760.60173
G1 X49.8 Y49.8 E2763.90114
G1 X0.2 Y49.8 E2767.20054
G0 F4800 X0.6 Y49.4
; TYPE:WALL-INNER
G1 F120 X0.6 Y0.6 E2770.44673
G1 X49.4 Y0.6 E2773.69292
G1 X49.4 Y49.4 E2776.93911
G1 X0.6 Y49.4 E2780.1853
G0 F4800 X0.975 Y49.059
; TYPE:FILL
G1 F120 X0.94 Y49.023 E2780.18864
G0 F4800 X1.852 Y49.059
G1 F120 X49.059 Y1.852 E2784.62959
G0 F4800 X49.059 Y0.975
G1 F120 X49.023 Y0.94 E2784.63293
G1 F1800 E2778.63293
G0 Z7.8
G0 F4800 X47.142 Y0.94
G0 Z5.8
G1 F1800 E2784.63293
G1 F120 X0.94 Y47.142 E2788.97933
G0 F4800 X0.94 Y46.195
G1 F120 X3.804 Y49.059 E2789.24875
G0 F4800 X4.681 Y49.059
G1 F120 X49.059 Y4.681 E2793.42356
G0 F4800 X49.059 Y3.804
G1 F120 X46.195 Y0.94 E2793.69299
G1 F1800 E2787.69299
G0 Z7.8
G0 F4800 X44.314 Y0.94
G0 Z5.8
G1 F1800 E2793.69299
G1 F120 X0.94 Y44.314 E2797.77335
G0 F4800 X0.94 Y43.366
G1 F120 X6.632 Y49.059 E2798.30887
G0 F4800 X7.509 Y49.059
G1 F120 X49.059 Y7.509 E2802.21764
G0 F4800 X49.059 Y6.632
G1 F120 X43.366 Y0.94 E2802.75315
G1 F1800 E2796.75315
G0 Z7.8
G0 F4800 X41.485 Y0.94
G0 Z5.8
G1 F1800 E2802.75315
G1 F120 X0.94 Y41.485 E2806.56738
G0 F4800 X0.94 Y40.538
G1 F120 X9.461 Y49.059 E2807.36898
G0 F4800 X10.337 Y49.059
G1 F120 X49.059 Y10.337 E2811.01171
G0 F4800 X49.059 Y9.461
G1 F120 X40.538 Y0.94 E2811.81331
G1 F1800 E2805.81331
G0 Z7.8
G0 F4800 X38.657 Y0.94
G0 Z5.8
G1 F1800 E2811.81331
G1 F120 X0.94 Y38.657 E2815.3615
G0 F4800 X0.94 Y37.71
G1 F120 X12.289 Y49.059 E2816.42914
G0 F4800 X13.166 Y49.059
G1 F120 X49.059 Y13.166 E2819.80573
G0 F4800 X49.059 Y12.289
G1 F120 X37.71 Y0.94 E2820.87338
G1 F1800 E2814.87338
G0 Z7.8
G0 F4800 X35.829 Y0.94
G0 Z5.8
G1 F1800 E2820.87338
G1 F120 X0.94 Y35.829 E2824.15552
G0 F4800 X0.94 Y34.881
G1 F120 X15.117 Y49.059 E2825.48925
G0 F4800 X15.994 Y49.059
G1 F120 X49.059 Y15.994 E2828.59981
G0 F4800 X49.059 Y15.117
G1 F120 X34.881 Y0.94 E2829.93354
G1 F1800 E2823.93354
G0 Z7.8
G0 F4800 X33 Y0.94
G0 Z5.8
G1 F1800 E2829.93354
G1 F120 X0.94 Y33 E2832.94955
G0 F4800 X0.94 Y32.053
G1 F120 X17.946 Y49.059 E2834.54937
G0 F4800 X18.823 Y49.059
G1 F120 X49.059 Y18.823 E2837.39379
G0 F4800 X49.059 Y17.946
G1 F120 X32.053 Y0.94 E2838.99361
G1 F1800 E2832.99361
G0 Z7.8
G0 F4800 X30.172 Y0.94
G0 Z5.8
G1 F1800 E2838.99361
G1 F120 X0.94 Y30.172 E2841.74357
G0 F4800 X0.94 Y29.224
G1 F120 X20.774 Y49.059 E2843.60948
G0 F4800 X21.651 Y49.059
G1 F120 X49.059 Y21.651 E2846.18786
G0 F4800 X49.059 Y20.774
G1 F120 X29.224 Y0.94 E2848.05377
G1 F1800 E2842.05377
G0 Z7.8
G0 F4800 X27.343 Y0.94
G0 Z5.8
G1 F1800 E2848.05377
G1 F120 X0.94 Y27.343 E2850.5376
G0 F4800 X0.94 Y26.396
G1 F120 X23.603 Y49.059 E2852.66959
G0 F4800 X24.48 Y49.059
G1 F120 X49.059 Y24.48 E2854.98184
G0 F4800 X49.059 Y23.603
G1 F120 X26.396 Y0.94 E2857.11383
G1 F1800 E2851.11383
G0 Z7.8
G0 F4800 X24.516 Y0.939
G0 Z5.8
G1 F1800 E2857.11383
G1 F120 X0.939 Y24.516 E2859.33181
G0 F4800 X0.939 Y23.567
G1 F120 X26.432 Y49.059 E2861.72999
G0 F4800 X27.307 Y49.059
G1 F120 X49.059 Y27.307 E2863.77628
G0 F4800 X49.059 Y26.432
G1 F120 X23.567 Y0.939 E2866.17446
G1 F1800 E2860.17446
G0 Z7.8
G0 F4800 X21.687 Y0.939
G0 Z5.8
G1 F1800 E2866.17446
G1 F120 X0.939 Y21.687 E2868.12631
G0 F4800 X0.939 Y20.738
G1 F120 X29.26 Y49.059 E2870.79057
G0 F4800 X30.136 Y49.059
G1 F120 X49.059 Y30.136 E2872.57073
G0 F4800 X49.059 Y29.26
G1 F120 X20.738 Y0.939 E2875.235
G1 F1800 E2869.235
G0 Z7.8
G0 F4800 X18.859 Y0.939
G0 Z5.8
G1 F1800 E2875.235
G1 F120 X0.939 Y18.859 E2876.9208
G0 F4800 X0.939 Y17.91
G1 F120 X32.089 Y49.059 E2879.85116
G0 F4800 X32.964 Y49.059
G1 F120 X49.059 Y32.964 E2881.36528
G0 F4800 X49.059 Y32.089
G1 F120 X17.91 Y0.939 E2884.29563
G1 F1800 E2878.29563
G0 Z7.8
G0 F4800 X16.03 Y0.939
G0 Z5.8
G1 F1800 E2884.29563
G1 F120 X0.939 Y16.03 E2885.7153
G0 F4800 X0.939 Y15.081
G1 F120 X34.917 Y49.059 E2888.91174
G0 F4800 X35.793 Y49.059
G1 F120 X49.059 Y35.793 E2890.15972
G0 F4800 X49.059 Y34.917
G1 F120 X15.081 Y0.939 E2893.35617
G1 F1800 E2887.35617
G0 Z7.8
G0 F4800 X13.202 Y0.939
G0 Z5.8
G1 F1800 E2893.35617
G1 F120 X0.939 Y13.202 E2894.50979
G0 F4800 X0.939 Y12.253
G1 F120 X37.746 Y49.059 E2897.97232
G0 F4800 X38.621 Y49.059
G1 F120 X49.059 Y38.621 E2898.95427
G0 F4800 X49.059 Y37.746
G1 F120 X12.253 Y0.939 E2902.4168
G1 F1800 E2896.4168
G0 Z7.8
G0 F4800 X10.373 Y0.939
G0 Z5.8
G1 F1800 E2902.4168
G1 F120 X0.939 Y10.373 E2903.30429
G0 F4800 X0.939 Y9.425
G1 F120 X40.574 Y49.059 E2907.03286
G0 F4800 X41.449 Y49.059
G1 F120 X49.059 Y41.449 E2907.74876
G0 F4800 X49.059 Y40.574
G1 F120 X9.425 Y0.939 E2911.47733
G1 F1800 E2905.47733
G0 Z7.8
G0 F4800 X7.545 Y0.939
G0 Z5.8
G1 F1800 E2911.47733
G1 F120 X0.939 Y7.545 E2912.09878
G0 F4800 X0.939 Y6.596
G1 F120 X43.402 Y49.059 E2916.09344
G0 F4800 X44.278 Y49.059
G1 F120 X49.059 Y44.278 E2916.54321
G0 F4800 X49.059 Y43.402
G1 F120 X6.596 Y0.939 E2920.53787
G1 F1800 E2914.53787
G0 Z7.8
G0 F4800 X4.717 Y0.939
G0 Z5.8
G1 F1800 E2920.53787
G1 F120 X0.939 Y4.717 E2920.89328
G0 F4800 X0.939 Y3.768
G1 F120 X46.231 Y49.059 E2925.15403
G0 F4800 X47.106 Y49.059
G1 F120 X49.059 Y47.106 E2925.33775
G0 F4800 X49.059 Y46.231
G1 F120 X3.768 Y0.939 E2929.5985
G1 F1800 E2923.5985
G0 Z7.8
G0 F4800 X1.888 Y0.939
G0 Z5.8
G1 F1800 E2929.5985
G1 F120 X0.939 Y1.888 E2929.68778
G0 F4800 X0.939 Y0.939
G1 F120 X49.059 Y49.059 E2934.21461
; Layer Change GCode
; LAYER:15
M400
M201 X1000 Y1000
M87 B9 D1
G1 F1800 E2928.21461
G0 Z7.8
G0 F4800 X0.2 Y49.8 Z8.2
; TYPE:WALL-OUTER
G0 Z6.2
G1 F1800 E2934.21461
M400
M87 B9 D0
G1 F120 X0.2 Y0.2 E2937.51402
G1 X49.8 Y0.2 E2940.81342
G1 X49.8 Y49.8 E2944.11283
G1 X0.2 Y49.8 E2947.41223
G0 F4800 X0.6 Y49.4
; TYPE:WALL-INNER
G1 F120 X0.6 Y0.6 E2950.65842
G1 X49.4 Y0.6 E2953.90461
G1 X49.4 Y49.4 E2957.1508
G1 X0.6 Y49.4 E2960.39699
G0 F4800 X0.975 Y49.059
; TYPE:FILL
G1 F120 X0.94 Y49.023 E2960.40033
G0 F4800 X1.852 Y49.059
G1 F120 X49.059 Y1.852 E2964.84127
G0 F4800 X49.059 Y0.975
G1 F120 X49.023 Y0.94 E2964.84461
G1 F1800 E2958.84461
G0 Z8.2
G0 F4800 X47.142 Y0.94
G0 Z6.2
G1 F1800 E2964.84461
G1 F120 X0.94 Y47.142 E2969.19101
G0 F4800 X0.94 Y46.195
G1 F120 X3.804 Y49.059 E2969.46044
G0 F4800 X4.681 Y49.059
G1 F120 X49.059 Y4.681 E2973.63525
G0 F4800 X49.059 Y3.804
G1 F120 X46.195 Y0.94 E2973.90468
G1 F1800 E2967.90468
G0 Z8.2
G0 F4800 X44.314 Y0.94
G0 Z6.2
G1 F1800 E2973.90468
G1 F120 X0.94 Y44.314 E2977.98504
G0 F4800 X0.94 Y43.366
G1 F120 X6.632 Y49.059 E2978.52055
G0 F4800 X7.509 Y49.059
G1 F120 X49.059 Y7.509 E2982.42932
G0 F4800 X49.059 Y6.632
G1 F120 X43.366 Y0.94 E2982.96484
G1 F1800 E2976.96484
G0 Z8.2
G0 F4800 X41.485 Y0.94
G0 Z6.2
G1 F1800 E2982.96484
G1 F120 X0.94 Y41.485 E2986.77906
G0 F4800 X0.94 Y40.538
G1 F120 X9.461 Y49.059 E2987.58067
G0 F4800 X10.337 Y49.059
G1 F120 X49.059 Y10.337 E2991.2234
G0 F4800 X49.059 Y9.461
G1 F120 X40.538 Y0.94 E2992.025
G1 F1800 E2986.025
G0 Z8.2
G0 F4800 X38.657 Y0.94
G0 Z6.2
G1 F1800 E2992.025
G1 F120 X0.94 Y38.657 E2995.57318
G0 F4800 X0.94 Y37.71
G1 F120 X12.289 Y49.059 E2996.64083
G0 F4800 X13.166 Y49.059
G1 F120 X49.059 Y13.166 E3000.01742
G0 F4800 X49.059 Y12.289
G1 F120 X37.71 Y0.94 E3001.08507
G1 F1800 E2995.08507
G0 Z8.2
G0 F4800 X35.829 Y0.94
G0 Z6.2
G1 F1800 E3001.08507
G1 F120 X0.94 Y35.829 E3004.36721
G0 F4800 X0.94 Y34.881
G1 F120 X15.117 Y49.059 E3005.70094
G0 F4800 X15.994 Y49.059
G1 F120 X49.059 Y15.994 E3008.81149
G0 F4800 X49.059 Y15.117
G1 F120 X34.881 Y0.94 E3010.14523
G1 F1800 E3004.14523
G0 Z8.2
G0 F4800 X33 Y0.94
G0 Z6.2
G1 F1800 E3010.14523
G1 F120 X0.94 Y33 E3013.16123
G0 F4800 X0.94 Y32.053
G1 F120 X17.946 Y49.059 E3014.76105
G0 F4800 X18.823 Y49.059
G1 F120 X49.059 Y18.823 E3017.60547
G0 F4800 X49.059 Y17.946
G1 F120 X32.053 Y0.94 E3019.20529
G1 F1800 E3013.20529
G0 Z8.2
G0 F4800 X30.172 Y0.94
G0 Z6.2
G1 F1800 E3019.20529
G1 F120 X0.94 Y30.172 E3021.95526
G0 F4800 X0.94 Y29.224
G1 F120 X20.774 Y49.059 E3023.82117
G0 F4800 X21.651 Y49.059
G1 F120 X49.059 Y21.651 E3026.39954
G0 F4800 X49.059 Y20.774
G1 F120 X29.224 Y0.94 E3028.26545
G1 F1800 E3022.26545
G0 Z8.2
G0 F4800 X27.343 Y0.94
G0 Z6.2
G1 F1800 E3028.26545
G1 F120 X0.94 Y27.343 E3030.74928
G0 F4800 X0.94 Y26.396
G1 F120 X23.603 Y49.059 E3032.88128
G0 F4800 X24.48 Y49.059
G1 F120 X49.059 Y24.48 E3035.19352
G0 F4800 X49.059 Y23.603
G1 F120 X26.396 Y0.94 E3037.32552
G1 F1800 E3031.32552
G0 Z8.2
G0 F4800 X24.516 Y0.939
G0 Z6.2
G1 F1800 E3037.32552
G1 F120 X0.939 Y24.516 E3039.5435
G0 F4800 X0.939 Y23.567
G1 F120 X26.432 Y49.059 E3041.94168
G0 F4800 X27.307 Y49.059
G1 F120 X49.059 Y27.307 E3043.98797
G0 F4800 X49.059 Y26.432
G1 F120 X23.567 Y0.939 E3046.38615
G1 F1800 E3040.38615
G0 Z8.2
G0 F4800 X21.687 Y0.939
G0 Z6.2
G1 F1800 E3046.38615
G1 F120 X0.939 Y21.687 E3048.33799
G0 F4800 X0.939 Y20.738
G1 F120 X29.26 Y49.059 E3051.00226
G0 F4800 X30.136 Y49.059
G1 F120 X49.059 Y30.136 E3052.78242
G0 F4800 X49.059 Y29.26
G1 F120 X20.738 Y0.939 E3055.44669
G1 F1800 E3049.44669
G0 Z8.2
G0 F4800 X18.859 Y0.939
G0 Z6.2
G1 F1800 E3055.44669
G1 F120 X0.939 Y18.859 E3057.13249
G0 F4800 X0.939 Y17.91
G1 F120 X32.089 Y49.059 E3060.06284
G0 F4800 X32.964 Y49.059
G1 F120 X49.059 Y32.964 E3061.57696
G0 F4800 X49.059 Y32.089
G1 F120 X17.91 Y0.939 E3064.50732
G1 F1800 E3058.50732
G0 Z8.2
G0 F4800 X16.03 Y0.939
G0 Z6.2
G1 F1800 E3064.50732
G1 F120 X0.939 Y16.03 E3065.92698
G0 F4800 X0.939 Y15.081
G1 F120 X34.917 Y49.059 E3069.12343
G0 F4800 X35.793 Y49.059
G1 F120 X49.059 Y35.793 E3070.37141
G0 F4800 X49.059 Y34.917
G1 F120 X15.081 Y0.939 E3073.56785
G1 F1800 E3067.56785
G0 Z8.2
G0 F4800 X13.202 Y0.939
G0 Z6.2
G1 F1800 E3073.56785
G1 F120 X0.939 Y13.202 E3074.72148
G0 F4800 X0.939 Y12.253
G1 F120 X37.746 Y49.059 E3078.18401
G0 F4800 X38.621 Y49.059
G1 F120 X49.059 Y38.621 E3079.16595
G0 F4800 X49.059 Y37.746
G1 F120 X12.253 Y0.939 E3082.62848
G1 F1800 E3076.62848
G0 Z8.2
G0 F4800 X10.373 Y0.939
G0 Z6.2
G1 F1800 E3082.62848
G1 F120 X0.939 Y10.373 E3083.51598
G0 F4800 X0.939 Y9.425
G1 F120 X40.574 Y49.059 E3087.24455
G0 F4800 X41.449 Y49.059
G1 F120 X49.059 Y41.449 E3087.96045
G0 F4800 X49.059 Y40.574
G1 F120 X9.425 Y0.939 E3091.68902
G1 F1800 E3085.68902
G0 Z8.2
G0 F4800 X7.545 Y0.939
G0 Z6.2
G1 F1800 E3091.68902
G1 F120 X0.939 Y7.545 E3092.31047
G0 F4800 X0.939 Y6.596
G1 F120 X43.402 Y49.059 E3096.30513
G0 F4800 X44.278 Y49.059
G1 F120 X49.059 Y44.278 E3096.7549
G0 F4800 X49.059 Y43.402
G1 F120 X6.596 Y0.939 E3100.74956
G1 F1800 E3094.74956
G0 Z8.2
G0 F4800 X4.717 Y0.939
G0 Z6.2
G1 F1800 E3100.74956
G1 F120 X0.939 Y4.717 E3101.10497
G0 F4800 X0.939 Y3.768
G1 F120 X46.231 Y49.059 E3105.36571
G0 F4800 X47.106 Y49.059
G1 F120 X49.059 Y47.106 E3105.54944
G0 F4800 X49.059 Y46.231
G1 F120 X3.768 Y0.939 E3109.81019
G1 F1800 E3103.81019
G0 Z8.2
G0 F4800 X1.888 Y0.939
G0 Z6.2
G1 F1800 E3109.81019
G1 F120 X0.939 Y1.888 E3109.89946
G0 F4800 X0.939 Y0.939
G1 F120 X49.059 Y49.059 E3114.4263
; Layer Change GCode
; LAYER:16
M400
M201 X1000 Y1000
M87 B9 D1
G1 F1800 E3108.4263
G0 Z8.2
G0 F4800 X0.2 Y49.8 Z8.6
; TYPE:WALL-OUTER
G0 Z6.6
G1 F1800 E3114.4263
M400
M87 B9 D0
G1 F120 X0.2 Y0.2 E3117.7257
G1 X49.8 Y0.2 E3121.02511
G1 X49.8 Y49.8 E3124.32451
G1 X0.2 Y49.8 E3127.62392
G0 F4800 X0.6 Y49.4
; TYPE:WALL-INNER
G1 F120 X0.6 Y0.6 E3130.87011
G1 X49.4 Y0.6 E3134.1163
G1 X49.4 Y49.4 E3137.36249
G1 X0.6 Y49.4 E3140.60868
G0 F4800 X0.975 Y49.059
; TYPE:FILL
G1 F120 X0.94 Y49.023 E3140.61202
G0 F4800 X1.852 Y49.059
G1 F120 X49.059 Y1.852 E3145.05296
G0 F4800 X49.059 Y0.975
G1 F120 X49.023 Y0.94 E3145.0563
G1 F1800 E3139.0563
G0 Z8.6
G0 F4800 X47.142 Y0.94
G0 Z6.6
G1 F1800 E3145.0563
G1 F120 X0.94 Y47.142 E3149.4027
G0 F4800 X0.94 Y46.195
G1 F120 X3.804 Y49.059 E3149.67213
G0 F4800 X4.681 Y49.059
G1 F120 X49.059 Y4.681 E3153.84694
G0 F4800 X49.059 Y3.804
G1 F120 X46.195 Y0.94 E3154.11637
G1 F1800 E3148.11637
G0 Z8.6
G0 F4800 X44.314 Y0.94
G0 Z6.6
G1 F1800 E3154.11637
G1 F120 X0.94 Y44.314 E3158.19673
G0 F4800 X0.94 Y43.366
G1 F120 X6.632 Y49.059 E3158.73224
G0 F4800 X7.509 Y49.059
G1 F120 X49.059 Y7.509 E3162.64101
G0 F4800 X49.059 Y6.632
G1 F120 X43.366 Y0.94 E3163.17653
G1 F1800 E3157.17653
G0 Z8.6
G0 F4800 X41.485 Y0.94
G0 Z6.6
G1 F1800 E3163.17653
G1 F120 X0.94 Y41.485 E3166.99075
G0 F4800 X0.94 Y40.538
G1 F120 X9.461 Y49.059 E3167.79236
G0 F4800 X10.337 Y49.059
G1 F120 X49.059 Y10.337 E3171.43508
G0 F4800 X49.059 Y9.461
G1 F120 X40.538 Y0.94 E3172.23669
G1 F1800 E3166.23669
G0 Z8.6
G0 F4800 X38.657 Y0.94
G0 Z6.6
G1 F1800 E3172.23669
G1 F120 X0.94 Y38.657 E3175.78487
G0 F4800 X0.94 Y37.71
G1 F120 X12.289 Y49.059 E3176.85252
G0 F4800 X13.166 Y49.059
G1 F120 X49.059 Y13.166 E3180.22911
G0 F4800 X49.059 Y12.289
G1 F120 X37.71 Y0.94 E3181.29675
G1 F1800 E3175.29675
G0 Z8.6
G0 F4800 X35.829 Y0.94
G0 Z6.6
G1 F1800 E3181.29675
G1 F120 X0.94 Y35.829 E3184.5789
G0 F4800 X0.94 Y34.881
G1 F120 X15.117 Y49.059 E3185.91263
G0 F4800 X15.994 Y49.059
G1 F120 X49.059 Y15.994 E3189.02318
G0 F4800 X49.059 Y15.117
G1 F120 X34.881 Y0.94 E3190.35691
G1 F1800 E3184.35691
G0 Z8.6
G0 F4800 X33 Y0.94
G0 Z6.6
G1 F1800 E3190.35691
G1 F120 X0.94 Y33 E3193.37292
G0 F4800 X0.94 Y32.053
G1 F120 X17.946 Y49.059 E3194.97274
G0 F4800 X18.823 Y49.059
G1 F120 X49.059 Y18.823 E3197.81716
G0 F4800 X49.059 Y17.946
G1 F120 X32.053 Y0.94 E3199.41698
G1 F1800 E3193.41698
G0 Z8.6
G0 F4800 X30.172 Y0.94
G0 Z6.6
G1 F1800 E3199.41698
G1 F120 X0.94 Y30.172 E3202.16695
G0 F4800 X0.94 Y29.224
G1 F120 X20.774 Y49.059 E3204.03285
G0 F4800 X21.651 Y49.059
G1 F120 X49.059 Y21.651 E3206.61123
G0 F4800 X49.059 Y20.774
G1 F120 X29.224 Y0.94 E3208.47714
G1 F1800 E3202.47714
G0 Z8.6
G0 F4800 X27.343 Y0.94
G0 Z6.6
G1 F1800 E3208.47714
G1 F120 X0.94 Y27.343 E3210.96097
G0 F4800 X0.94 Y26.396
G1 F120 X23.603 Y49.059 E3213.09297
G0 F4800 X24.48 Y49.059
G1 F120 X49.059 Y24.48 E3215.40521
G0 F4800 X49.059 Y23.603
G1 F120 X26.396 Y0.94 E3217.53721
G1 F1800 E3211.53721
G0 Z8.6
G0 F4800 X24.516 Y0.939
G0 Z6.6
G1 F1800 E3217.53721
G1 F120 X0.939 Y24.516 E3219.75519
G0 F4800 X0.939 Y23.567
G1 F120 X26.432 Y49.059 E3222.15336
G0 F4800 X27.307 Y49.059
G1 F120 X49.059 Y27.307 E3224.19966
G0 F4800 X49.059 Y26.432
G1 F120 X23.567 Y0.939 E3226.59784
G1 F1800 E3220.59784
G0 Z8.6
G0 F4800 X21.687 Y0.939
G0 Z6.6
G1 F1800 E3226.59784
G1 F120 X0.939 Y21.687 E3228.54968
G0 F4800 X0.939 Y20.738
G1 F120 X29.26 Y49.059 E3231.21395
G0 F4800 X30.136 Y49.059
G1 F120 X49.059 Y30.136 E3232.99411
G0 F4800 X49.059 Y29.26
G1 F120 X20.738 Y0.939 E3235.65837
G1 F1800 E3229.65837
G0 Z8.6
G0 F4800 X18.859 Y0.939
G0 Z6.6
G1 F1800 E3235.65837
G1 F120 X0.939 Y18.859 E3237.34418
G0 F4800 X0.939 Y17.91
G1 F120 X32.089 Y49.059 E3240.27453
G0 F4800 X32.964 Y49.059
G1 F120 X49.059 Y32.964 E3241.78865
G0 F4800 X49.059 Y32.089
G1 F120 X17.91 Y0.939 E3244.719
G1 F1800 E3238.719
G0 Z8.6
G0 F4800 X16.03 Y0.939
G0 Z6.6
G1 F1800 E3244.719
G1 F120 X0.939 Y16.03 E3246.13867
G0 F4800 X0.939 Y15.081
G1 F120 X34.917 Y49.059 E3249.33511
G0 F4800 X35.793 Y49.059
G1 F120 X49.059 Y35.793 E3250.5831
G0 F4800 X49.059 Y34.917
G1 F120 X15.081 Y0.939 E3253.77954
G1 F1800 E3247.77954
G0 Z8.6
G0 F4800 X13.202 Y0.939
G0 Z6.6
G1 F1800 E3253.77954
G1 F120 X0.939 Y13.202 E3254.93317
G0 F4800 X0.939 Y12.253
G1 F120 X37.746 Y49.059 E3258.3957
G0 F4800 X38.621 Y49.059
G1 F120 X49.059 Y38.621 E3259.37764
G0 F4800 X49.059 Y37.746
G1 F120 X12.253 Y0.939 E3262.84017
G1 F1800 E3256.84017
G0 Z8.6
G0 F4800 X10.373 Y0.939
G0 Z6.6
G1 F1800 E3262.84017
G1 F120 X0.939 Y10.373 E3263.72766
G0 F4800 X0.939 Y9.425
G1 F120 X40.574 Y49.059 E3267.45623
G0 F4800 X41.449 Y49.059
G1 F120 X49.059 Y41.449 E3268.17214
G0 F4800 X49.059 Y40.574
G1 F120 X9.425 Y0.939 E3271.90071
G1 F1800 E3265.90071
G0 Z8.6
G0 F4800 X7.545 Y0.939
G0 Z6.6
G1 F1800 E3271.90071
G1 F120 X0.939 Y7.545 E3272.52216
G0 F4800 X0.939 Y6.596
G1 F120 X43.402 Y49.059 E3276.51682
G0 F4800 X44.278 Y49.059
G1 F120 X49.059 Y44.278 E3276.96658
G0 F4800 X49.059 Y43.402
G1 F120 X6.596 Y0.939 E3280.96124
G1 F1800 E3274.96124
G0 Z8.6
G0 F4800 X4.717 Y0.939
G0 Z6.6
G1 F1800 E3280.96124
G1 F120 X0.939 Y4.717 E3281.31665
G0 F4800 X0.939 Y3.768
G1 F120 X46.231 Y49.059 E3285.5774
G0 F4800 X47.106 Y49.059
G1 F120 X49.059 Y47.106 E3285.76113
G0 F4800 X49.059 Y46.231
G1 F120 X3.768 Y0.939 E3290.02187
G1 F1800 E3284.02187
G0 Z8.6
G0 F4800 X1.888 Y0.939
G0 Z6.6
G1 F1800 E3290.02187
G1 F120 X0.939 Y1.888 E3290.11115
G0 F4800 X0.939 Y0.939
G1 F120 X49.059 Y49.059 E3294.63798
; Layer Change GCode
; LAYER:17
M400
M201 X1000 Y1000
M87 B9 D1
G1 F1800 E3288.63798
G0 Z8.6
G0 F4800 X0.2 Y49.8 Z9
; TYPE:WALL-OUTER
G0 Z7
G1 F1800 E3294.63798
M400
M87 B9 D0
G1 F120 X0.2 Y0.2 E3297.93739
G1 X49.8 Y0.2 E3301.23679
G1 X49.8 Y49.8 E3304.5362
G1 X0.2 Y49.8 E3307.83561
G0 F4800 X0.6 Y49.4
; TYPE:WALL-INNER
G1 F120 X0.6 Y0.6 E3311.08179
G1 X49.4 Y0.6 E3314.32798
G1 X49.4 Y49.4 E3317.57417
G1 X0.6 Y49.4 E3320.82036
G0 F4800 X0.975 Y49.059
; TYPE:FILL
G1 F120 X0.94 Y49.023 E3320.8237
G0 F4800 X1.852 Y49.059
G1 F120 X49.059 Y1.852 E3325.26465
G0 F4800 X49.059 Y0.975
G1 F120 X49.023 Y0.94 E3325.26799
G1 F1800 E3319.26799
G0 Z9
G0 F4800 X47.142 Y0.94
G0 Z7
G1 F1800 E3325.26799
G1 F120 X0.94 Y47.142 E3329.61439
G0 F4800 X0.94 Y46.195
G1 F120 X3.804 Y49.059 E3329.88382
G0 F4800 X4.681 Y49.059
G1 F120 X49.059 Y4.681 E3334.05863
G0 F4800 X49.059 Y3.804
G1 F120 X46.195 Y0.94 E3334.32805
G1 F1800 E3328.32805
G0 Z9
G0 F4800 X44.314 Y0.94
G0 Z7
G1 F1800 E3334.32805
G1 F120 X0.94 Y44.314 E3338.40841
G0 F4800 X0.94 Y43.366
G1 F120 X6.632 Y49.059 E3338.94393
G0 F4800 X7.509 Y49.059
G1 F120 X49.059 Y7.509 E3342.8527
G0 F4800 X49.059 Y6.632
G1 F120 X43.366 Y0.94 E3343.38821
G1 F1800 E3337.38821
G0 Z9
G0 F4800 X41.485 Y0.94
G0 Z7
G1 F1800 E3343.38821
G1 F120 X0.94 Y41.485 E3347.20244
G0 F4800 X0.94 Y40.538
G1 F120 X9.461 Y49.059 E3348.00404
G0 F4800 X10.337 Y49.059
G1 F120 X49.059 Y10.337 E3351.64677
G0 F4800 X49.059 Y9.461
G1 F120 X40.538 Y0.94 E3352.44837
G1 F1800 E3346.44837
G0 Z9
G0 F4800 X38.657 Y0.94
G0 Z7
G1 F1800 E3352.44837
G1 F120 X0.94 Y38.657 E3355.99656
G0 F4800 X0.94 Y37.71
G1 F120 X12.289 Y49.059 E3357.0642
G0 F4800 X13.166 Y49.059
G1 F120 X49.059 Y13.166 E3360.4408
G0 F4800 X49.059 Y12.289
G1 F120 X37.71 Y0.94 E3361.50844
G1 F1800 E3355.50844
G0 Z9
G0 F4800 X35.829 Y0.94
G0 Z7
G1 F1800 E3361.50844
G1 F120 X0.94 Y35.829 E3364.79058
G0 F4800 X0.94 Y34.881
G1 F120 X15.117 Y49.059 E3366.12432
G0 F4800 X15.994 Y49.059
G1 F120 X49.059 Y15.994 E3369.23487
G0 F4800 X49.059 Y15.117
